;FLAVOR:UltiGCode
;TIME:7941
;MATERIAL:13389
;MATERIAL2:0
;NOZZLE_DIAMETER:0.4
;Generated with Cura_SteamEngine 3.2.1
M82 ;absolute extrusion mode

;LAYER_COUNT:49
;LAYER:0
M107
G0 F4500 X67.134 Y69.045 Z0.27
;TYPE:SKIRT
G1 F1800 X67.931 Y68.375 E0.09839
G1 X68.563 Y67.896 E0.17333
G1 X69.24 Y67.482 E0.24832
G1 X70.303 Y67.004 E0.35847
G1 X71.283 Y66.647 E0.45703
G1 X72.041 Y66.413 E0.532
G1 X72.819 Y66.257 E0.60698
G1 X73.973 Y66.171 E0.71634
G1 X148.494 Y66.125 E7.75857
G1 X149.287 Y66.164 E7.8336
G1 X149.859 Y66.243 E7.88817
G1 X150.886 Y66.423 E7.9867
G1 X151.659 Y66.599 E8.06162
G1 X152.411 Y66.853 E8.13663
G1 X153.468 Y67.363 E8.24753
G1 X154.369 Y67.884 E8.34589
G1 X155.035 Y68.315 E8.42085
G1 X155.654 Y68.811 E8.49581
G1 X156.455 Y69.634 E8.60434
G1 X157.125 Y70.431 E8.70273
G1 X157.604 Y71.063 E8.77767
G1 X158.018 Y71.74 E8.85266
G1 X158.496 Y72.803 E8.9628
G1 X158.853 Y73.783 E9.06137
G1 X159.087 Y74.541 E9.13633
G1 X159.243 Y75.319 E9.21132
G1 X159.329 Y76.473 E9.32067
G1 X159.375 Y145.994 E15.89041
G1 X159.336 Y146.786 E15.96535
G1 X159.282 Y147.209 E16.00564
G1 X159.141 Y148.116 E16.09238
G1 X158.979 Y148.893 E16.16739
G1 X158.741 Y149.649 E16.24229
G1 X158.401 Y150.431 E16.32287
G1 X157.981 Y151.27 E16.41153
G1 X157.59 Y151.961 E16.48656
G1 X157.132 Y152.609 E16.56155
G1 X156.541 Y153.28 E16.64605
G1 X155.881 Y153.948 E16.73479
G1 X155.296 Y154.483 E16.8097
G1 X154.659 Y154.957 E16.88474
G1 X153.898 Y155.407 E16.96828
G1 X153.063 Y155.839 E17.05713
G1 X152.34 Y156.168 E17.13219
G1 X151.589 Y156.422 E17.20711
G1 X150.728 Y156.615 E17.29049
G1 X149.802 Y156.768 E17.37919
G1 X149.013 Y156.857 E17.45422
G1 X148.518 Y156.873 E17.50102
G1 X74.501 Y156.875 E24.49563
G1 X73.709 Y156.835 E24.57057
G1 X73.141 Y156.757 E24.62475
G1 X72.114 Y156.577 E24.72328
G1 X71.341 Y156.401 E24.7982
G1 X70.589 Y156.147 E24.87321
G1 X69.532 Y155.637 E24.98411
G1 X68.631 Y155.116 E25.08247
G1 X67.965 Y154.685 E25.15743
G1 X67.346 Y154.189 E25.23239
G1 X66.545 Y153.366 E25.34092
G1 X65.875 Y152.569 E25.43931
G1 X65.396 Y151.937 E25.51425
G1 X64.982 Y151.26 E25.58924
G1 X64.504 Y150.197 E25.69938
G1 X64.147 Y149.217 E25.79795
G1 X63.913 Y148.459 E25.87291
G1 X63.757 Y147.681 E25.9479
G1 X63.671 Y146.527 E26.05725
G1 X63.625 Y77.006 E32.62699
G1 X63.664 Y76.214 E32.70193
G1 X63.743 Y75.64 E32.75668
G1 X63.923 Y74.614 E32.85512
G1 X64.1 Y73.841 E32.93006
G1 X64.353 Y73.089 E33.00503
G1 X64.861 Y72.036 E33.11552
G1 X65.382 Y71.134 E33.21395
G1 X65.813 Y70.468 E33.28892
G1 X66.309 Y69.848 E33.36395
G1 X67.134 Y69.045 E33.47275
G0 F4500 X67.359 Y69.313
G1 F1800 X68.156 Y68.643 E33.57114
G1 X68.774 Y68.175 E33.6444
G1 X69.438 Y67.773 E33.71775
G1 X70.422 Y67.333 E33.81961
G1 X71.402 Y66.976 E33.91818
G1 X72.144 Y66.748 E33.99153
G1 X72.905 Y66.598 E34.06483
G1 X73.973 Y66.521 E34.16602
G1 X148.494 Y66.475 E41.20825
G1 X149.269 Y66.514 E41.28158
G1 X149.798 Y66.588 E41.33206
G1 X150.825 Y66.768 E41.43059
G1 X151.581 Y66.941 E41.50388
G1 X152.315 Y67.191 E41.57715
G1 X153.293 Y67.666 E41.6799
G1 X154.194 Y68.187 E41.77825
G1 X154.844 Y68.609 E41.85149
G1 X155.448 Y69.096 E41.92481
G1 X156.187 Y69.859 E42.02519
G1 X156.857 Y70.656 E42.12358
G1 X157.325 Y71.274 E42.19684
G1 X157.727 Y71.938 E42.27019
G1 X158.167 Y72.922 E42.37205
G1 X158.524 Y73.902 E42.47062
G1 X158.752 Y74.644 E42.54397
G1 X158.902 Y75.405 E42.61727
G1 X158.979 Y76.473 E42.71846
G1 X159.025 Y145.994 E49.28819
G1 X158.986 Y146.769 E49.36152
G1 X158.936 Y147.155 E49.3983
G1 X158.795 Y148.062 E49.48505
G1 X158.636 Y148.821 E49.55833
G1 X158.4 Y149.56 E49.63164
G1 X158.088 Y150.274 E49.70527
G1 X157.668 Y151.113 E49.79394
G1 X157.285 Y151.788 E49.86728
G1 X156.836 Y152.42 E49.94054
G1 X156.292 Y153.034 E50.01806
G1 X155.632 Y153.702 E50.1068
G1 X155.059 Y154.225 E50.18011
G1 X154.435 Y154.686 E50.25343
G1 X153.737 Y155.096 E50.32993
G1 X152.902 Y155.528 E50.41877
G1 X152.195 Y155.849 E50.49214
G1 X151.46 Y156.095 E50.56539
G1 X150.671 Y156.269 E50.64174
G1 X149.745 Y156.422 E50.73043
G1 X148.974 Y156.509 E50.80376
G1 X148.518 Y156.523 E50.84687
G1 X74.501 Y156.525 E57.84148
G1 X73.727 Y156.485 E57.91472
G1 X73.202 Y156.412 E57.96481
G1 X72.175 Y156.232 E58.06334
G1 X71.419 Y156.059 E58.13663
G1 X70.685 Y155.809 E58.2099
G1 X69.707 Y155.334 E58.31265
G1 X68.806 Y154.813 E58.411
G1 X68.156 Y154.391 E58.48424
G1 X67.552 Y153.904 E58.55756
G1 X66.813 Y153.141 E58.65793
G1 X66.143 Y152.344 E58.75633
G1 X65.675 Y151.726 E58.82959
G1 X65.273 Y151.062 E58.90294
G1 X64.833 Y150.078 E59.0048
G1 X64.476 Y149.098 E59.10336
G1 X64.248 Y148.356 E59.17672
G1 X64.098 Y147.595 E59.25002
G1 X64.021 Y146.527 E59.3512
G1 X63.975 Y77.006 E65.92094
G1 X64.014 Y76.231 E65.99427
G1 X64.088 Y75.701 E66.04484
G1 X64.268 Y74.675 E66.14328
G1 X64.441 Y73.919 E66.21657
G1 X64.692 Y73.184 E66.28996
G1 X65.164 Y72.211 E66.39216
G1 X65.685 Y71.309 E66.49059
G1 X66.107 Y70.658 E66.56391
G1 X66.594 Y70.055 E66.63716
G1 X67.359 Y69.313 E66.73787
G0 F4500 X67.584 Y69.581
G1 F1800 X68.381 Y68.911 E66.83626
G1 X68.986 Y68.455 E66.90786
G1 X69.635 Y68.065 E66.97941
G1 X70.542 Y67.661 E67.07324
G1 X71.522 Y67.304 E67.1718
G1 X72.246 Y67.083 E67.24334
G1 X72.99 Y66.939 E67.31495
G1 X73.974 Y66.871 E67.40816
G1 X148.495 Y66.825 E74.45039
G1 X149.251 Y66.865 E74.52194
G1 X149.738 Y66.933 E74.5684
G1 X150.765 Y67.113 E74.66693
G1 X151.503 Y67.283 E74.7385
G1 X152.219 Y67.529 E74.81005
G1 X153.118 Y67.969 E74.90463
G1 X154.019 Y68.49 E75.00299
G1 X154.653 Y68.903 E75.07449
G1 X155.241 Y69.381 E75.1461
G1 X155.919 Y70.084 E75.2384
G1 X156.589 Y70.881 E75.33679
G1 X157.045 Y71.486 E75.40838
G1 X157.435 Y72.135 E75.47993
G1 X157.839 Y73.042 E75.57376
G1 X158.196 Y74.022 E75.67233
G1 X158.417 Y74.746 E75.74386
G1 X158.561 Y75.49 E75.81548
G1 X158.629 Y76.473 E75.90859
G1 X158.675 Y145.994 E82.47833
G1 X158.59 Y147.101 E82.58325
G1 X158.449 Y148.008 E82.66999
G1 X158.293 Y148.749 E82.74155
G1 X158.06 Y149.47 E82.81315
G1 X157.775 Y150.118 E82.88005
G1 X157.355 Y150.957 E82.96871
G1 X156.981 Y151.615 E83.04024
G1 X156.539 Y152.231 E83.11188
G1 X156.043 Y152.788 E83.18236
G1 X155.383 Y153.456 E83.2711
G1 X154.823 Y153.966 E83.34268
G1 X154.212 Y154.414 E83.41428
G1 X153.576 Y154.786 E83.48391
G1 X152.741 Y155.218 E83.57275
G1 X152.051 Y155.53 E83.64431
G1 X151.332 Y155.767 E83.71585
G1 X150.614 Y155.924 E83.78531
G1 X149.688 Y156.077 E83.874
G1 X148.935 Y156.161 E83.9456
G1 X148.518 Y156.173 E83.98502
G1 X74.501 Y156.175 E90.97963
G1 X73.745 Y156.135 E91.05117
G1 X73.262 Y156.067 E91.09726
G1 X72.235 Y155.887 E91.1958
G1 X71.497 Y155.717 E91.26736
G1 X70.781 Y155.471 E91.33891
G1 X69.882 Y155.031 E91.43349
G1 X68.981 Y154.51 E91.53185
G1 X68.347 Y154.097 E91.60335
G1 X67.759 Y153.619 E91.67496
G1 X67.081 Y152.916 E91.76726
G1 X66.411 Y152.119 E91.86565
G1 X65.955 Y151.514 E91.93724
G1 X65.565 Y150.865 E92.0088
G1 X65.161 Y149.958 E92.10263
G1 X64.804 Y148.978 E92.20119
G1 X64.583 Y148.254 E92.27272
G1 X64.439 Y147.51 E92.34434
G1 X64.371 Y146.527 E92.43745
G1 X64.325 Y77.006 E99.00719
G1 X64.364 Y76.249 E99.07882
G1 X64.433 Y75.761 E99.12539
G1 X64.613 Y74.735 E99.22383
G1 X64.783 Y73.997 E99.2954
G1 X65.03 Y73.281 E99.36697
G1 X65.467 Y72.386 E99.4611
G1 X65.988 Y71.484 E99.55953
G1 X66.401 Y70.849 E99.63111
G1 X66.878 Y70.262 E99.70259
G1 X67.584 Y69.581 E99.79529
G0 F4500 X67.809 Y69.849
G1 F1800 X68.606 Y69.179 E99.89368
G1 X69.197 Y68.735 E99.96354
G1 X69.831 Y68.357 E100.03329
G1 X70.662 Y67.99 E100.11914
G1 X71.642 Y67.633 E100.2177
G1 X72.349 Y67.418 E100.28753
G1 X73.074 Y67.281 E100.35726
G1 X73.974 Y67.221 E100.4425
G1 X148.495 Y67.175 E107.48473
G1 X149.232 Y67.215 E107.55448
G1 X149.677 Y67.277 E107.59694
G1 X150.704 Y67.457 E107.69547
G1 X151.424 Y67.624 E107.76532
G1 X152.121 Y67.868 E107.8351
G1 X152.942 Y68.272 E107.92157
G1 X153.843 Y68.793 E108.01993
G1 X154.462 Y69.196 E108.08973
G1 X155.033 Y69.665 E108.15956
G1 X155.651 Y70.309 E108.2439
G1 X156.321 Y71.106 E108.3423
G1 X156.765 Y71.697 E108.41215
G1 X157.143 Y72.331 E108.4819
G1 X157.51 Y73.162 E108.56775
G1 X157.867 Y74.142 E108.66631
G1 X158.082 Y74.849 E108.73615
G1 X158.219 Y75.574 E108.80587
G1 X158.279 Y76.473 E108.89102
G1 X158.325 Y145.994 E115.46075
G1 X158.244 Y147.047 E115.56055
G1 X158.103 Y147.954 E115.6473
G1 X157.95 Y148.677 E115.71713
G1 X157.72 Y149.379 E115.78694
G1 X157.462 Y149.961 E115.8471
G1 X157.042 Y150.8 E115.93577
G1 X156.676 Y151.442 E116.0056
G1 X156.243 Y152.04 E116.07537
G1 X155.794 Y152.542 E116.13902
G1 X155.134 Y153.21 E116.22776
G1 X154.587 Y153.706 E116.29754
G1 X153.99 Y154.141 E116.36734
G1 X153.415 Y154.475 E116.43018
G1 X152.58 Y154.907 E116.51902
G1 X151.907 Y155.21 E116.58877
G1 X151.204 Y155.439 E116.65864
G1 X150.557 Y155.579 E116.7212
G1 X149.631 Y155.732 E116.80989
G1 X148.896 Y155.813 E116.87977
G1 X148.518 Y155.823 E116.9155
G1 X74.501 Y155.825 E123.91011
G1 X73.764 Y155.785 E123.97986
G1 X73.323 Y155.723 E124.02194
G1 X72.296 Y155.543 E124.12047
G1 X71.576 Y155.376 E124.19032
G1 X70.879 Y155.132 E124.2601
G1 X70.058 Y154.728 E124.34657
G1 X69.157 Y154.207 E124.44493
G1 X68.538 Y153.804 E124.51473
G1 X67.967 Y153.335 E124.58456
G1 X67.349 Y152.691 E124.6689
G1 X66.679 Y151.894 E124.7673
G1 X66.235 Y151.303 E124.83715
G1 X65.857 Y150.669 E124.9069
G1 X65.49 Y149.838 E124.99275
G1 X65.133 Y148.858 E125.09131
G1 X64.918 Y148.151 E125.16115
G1 X64.781 Y147.426 E125.23087
G1 X64.721 Y146.527 E125.31602
G1 X64.675 Y77.006 E131.88575
G1 X64.714 Y76.268 E131.95559
G1 X64.778 Y75.822 E131.99817
G1 X64.958 Y74.796 E132.09661
G1 X65.124 Y74.076 E132.16643
G1 X65.368 Y73.379 E132.23622
G1 X65.77 Y72.561 E132.32235
G1 X66.291 Y71.659 E132.42079
G1 X66.695 Y71.041 E132.49056
G1 X67.163 Y70.469 E132.5604
G1 X67.809 Y69.849 E132.64501
G0 F4500 X68.034 Y70.117
G1 F1800 X68.831 Y69.447 E132.74341
G1 X69.407 Y69.015 E132.81145
G1 X70.027 Y68.65 E132.87944
G1 X70.782 Y68.319 E132.95734
G1 X71.762 Y67.962 E133.0559
G1 X72.45 Y67.754 E133.12383
G1 X73.158 Y67.623 E133.19187
G1 X73.974 Y67.571 E133.26914
G1 X148.495 Y67.525 E140.31137
G1 X149.213 Y67.565 E140.37933
G1 X149.617 Y67.622 E140.41788
G1 X150.644 Y67.802 E140.51641
G1 X151.344 Y67.966 E140.58436
G1 X152.023 Y68.206 E140.65241
G1 X152.767 Y68.575 E140.73089
G1 X153.668 Y69.096 E140.82925
G1 X154.27 Y69.49 E140.89724
G1 X154.825 Y69.948 E140.96524
G1 X155.383 Y70.534 E141.0417
G1 X156.053 Y71.331 E141.1401
G1 X156.485 Y71.907 E141.20814
G1 X156.85 Y72.527 E141.27613
G1 X157.181 Y73.282 E141.35403
G1 X157.538 Y74.262 E141.45259
G1 X157.746 Y74.95 E141.52052
G1 X157.877 Y75.658 E141.58856
G1 X157.929 Y76.474 E141.66583
G1 X157.975 Y145.995 E148.23556
G1 X157.898 Y146.994 E148.33025
G1 X157.757 Y147.901 E148.41699
G1 X157.607 Y148.604 E148.48492
G1 X157.38 Y149.287 E148.55293
G1 X157.149 Y149.804 E148.60644
G1 X156.729 Y150.643 E148.69511
G1 X156.372 Y151.268 E148.76313
G1 X155.947 Y151.849 E148.83115
G1 X155.545 Y152.296 E148.88796
G1 X154.885 Y152.964 E148.9767
G1 X154.352 Y153.447 E149.04468
G1 X153.768 Y153.868 E149.11271
G1 X153.254 Y154.164 E149.16876
G1 X152.419 Y154.596 E149.2576
G1 X151.763 Y154.891 E149.32558
G1 X151.078 Y155.11 E149.39354
G1 X150.5 Y155.233 E149.44938
G1 X149.574 Y155.386 E149.53807
G1 X148.518 Y155.473 E149.6382
G1 X74.501 Y155.475 E156.63281
G1 X73.783 Y155.435 E156.70077
G1 X73.383 Y155.378 E156.73895
G1 X72.356 Y155.198 E156.83748
G1 X71.656 Y155.034 E156.90542
G1 X70.977 Y154.794 E156.97348
G1 X70.233 Y154.425 E157.05196
G1 X69.332 Y153.904 E157.15031
G1 X68.73 Y153.51 E157.2183
G1 X68.175 Y153.052 E157.2863
G1 X67.617 Y152.466 E157.36277
G1 X66.947 Y151.669 E157.46116
G1 X66.515 Y151.093 E157.5292
G1 X66.15 Y150.473 E157.59719
G1 X65.819 Y149.718 E157.67509
G1 X65.462 Y148.738 E157.77366
G1 X65.254 Y148.05 E157.84158
G1 X65.123 Y147.342 E157.90962
G1 X65.071 Y146.526 E157.98689
G1 X65.025 Y77.005 E164.55663
G1 X65.064 Y76.287 E164.62458
G1 X65.122 Y75.882 E164.66324
G1 X65.302 Y74.856 E164.76168
G1 X65.466 Y74.156 E164.82962
G1 X65.706 Y73.477 E164.89768
G1 X66.073 Y72.736 E164.97582
G1 X66.594 Y71.834 E165.07425
G1 X66.988 Y71.232 E165.14224
G1 X67.446 Y70.678 E165.21017
G1 X68.034 Y70.117 E165.28697
G0 F4500 X68.26 Y70.385
G1 F1800 X69.057 Y69.715 E165.38536
G1 X69.617 Y69.296 E165.45146
G1 X70.222 Y68.943 E165.51765
G1 X70.902 Y68.648 E165.5877
G1 X71.882 Y68.291 E165.68626
G1 X72.552 Y68.089 E165.75239
G1 X73.24 Y67.966 E165.81844
G1 X73.974 Y67.921 E165.88793
G1 X148.495 Y67.875 E172.93017
G1 X149.194 Y67.915 E172.99633
G1 X149.556 Y67.967 E173.03089
G1 X150.583 Y68.147 E173.12942
G1 X151.265 Y68.307 E173.19562
G1 X151.923 Y68.544 E173.26171
G1 X152.592 Y68.878 E173.33237
G1 X153.493 Y69.399 E173.43073
G1 X154.078 Y69.783 E173.49686
G1 X154.615 Y70.231 E173.56294
G1 X155.115 Y70.76 E173.63173
G1 X155.785 Y71.557 E173.73012
G1 X156.204 Y72.117 E173.79622
G1 X156.557 Y72.722 E173.86241
G1 X156.852 Y73.402 E173.93246
G1 X157.209 Y74.382 E174.03102
G1 X157.411 Y75.052 E174.09715
G1 X157.534 Y75.74 E174.1632
G1 X157.579 Y76.474 E174.23269
G1 X157.625 Y145.995 E180.80243
G1 X157.552 Y146.94 E180.89199
G1 X157.411 Y147.847 E180.97874
G1 X157.265 Y148.531 E181.04483
G1 X157.041 Y149.194 E181.11096
G1 X156.836 Y149.648 E181.15804
G1 X156.416 Y150.487 E181.2467
G1 X156.068 Y151.094 E181.31282
G1 X155.652 Y151.657 E181.37897
G1 X155.296 Y152.05 E181.42908
G1 X154.636 Y152.718 E181.51782
G1 X154.117 Y153.187 E181.58393
G1 X153.547 Y153.593 E181.65006
G1 X153.093 Y153.853 E181.6995
G1 X152.258 Y154.285 E181.78834
G1 X151.62 Y154.571 E181.85441
G1 X150.952 Y154.781 E181.92059
G1 X150.442 Y154.888 E181.96983
G1 X149.516 Y155.041 E182.05852
G1 X148.518 Y155.123 E182.15315
G1 X74.501 Y155.125 E189.14776
G1 X73.803 Y155.085 E189.21383
G1 X73.444 Y155.033 E189.24811
G1 X72.417 Y154.853 E189.34664
G1 X71.735 Y154.693 E189.41284
G1 X71.077 Y154.456 E189.47893
G1 X70.408 Y154.122 E189.54959
G1 X69.507 Y153.601 E189.64795
G1 X68.922 Y153.217 E189.71407
G1 X68.385 Y152.769 E189.78016
G1 X67.885 Y152.24 E189.84895
G1 X67.215 Y151.443 E189.94734
G1 X66.796 Y150.883 E190.01344
G1 X66.443 Y150.278 E190.07963
G1 X66.148 Y149.598 E190.14967
G1 X65.791 Y148.618 E190.24824
G1 X65.589 Y147.948 E190.31437
G1 X65.466 Y147.26 E190.38042
G1 X65.421 Y146.526 E190.44991
G1 X65.375 Y77.005 E197.01964
G1 X65.415 Y76.306 E197.08581
G1 X65.467 Y75.943 E197.12046
G1 X65.647 Y74.917 E197.2189
G1 X65.807 Y74.235 E197.2851
G1 X66.044 Y73.577 E197.35119
G1 X66.376 Y72.911 E197.42151
G1 X66.897 Y72.009 E197.51995
G1 X67.281 Y71.425 E197.586
G1 X67.729 Y70.887 E197.65216
G1 X68.26 Y70.385 E197.72121
G0 F4500 X68.485 Y70.652
G1 F1800 X69.282 Y69.982 E197.81961
G1 X69.827 Y69.577 E197.88377
G1 X70.416 Y69.238 E197.94799
G1 X71.021 Y68.977 E198.01026
G1 X72.001 Y68.62 E198.10882
G1 X72.652 Y68.425 E198.17304
G1 X73.322 Y68.308 E198.23732
G1 X73.974 Y68.271 E198.29903
G1 X148.495 Y68.225 E205.34127
G1 X149.496 Y68.312 E205.43622
G1 X150.523 Y68.492 E205.53475
G1 X151.184 Y68.648 E205.59893
G1 X151.822 Y68.881 E205.66311
G1 X152.417 Y69.181 E205.72608
G1 X153.318 Y69.702 E205.82444
G1 X153.885 Y70.076 E205.88863
G1 X154.404 Y70.514 E205.9528
G1 X154.848 Y70.985 E206.01397
G1 X155.518 Y71.782 E206.11237
G1 X155.923 Y72.327 E206.17653
G1 X156.262 Y72.916 E206.24075
G1 X156.523 Y73.521 E206.30302
G1 X156.88 Y74.501 E206.40158
G1 X157.075 Y75.152 E206.4658
G1 X157.192 Y75.822 E206.53008
G1 X157.229 Y76.474 E206.59179
G1 X157.275 Y145.995 E213.16153
G1 X157.206 Y146.886 E213.24598
G1 X157.065 Y147.793 E213.33272
G1 X156.922 Y148.457 E213.3969
G1 X156.701 Y149.1 E213.46116
G1 X156.523 Y149.491 E213.50176
G1 X156.103 Y150.33 E213.59042
G1 X155.764 Y150.919 E213.65464
G1 X155.358 Y151.463 E213.71879
G1 X155.047 Y151.804 E213.7624
G1 X154.387 Y152.472 E213.85114
G1 X153.882 Y152.926 E213.91532
G1 X153.327 Y153.318 E213.97953
G1 X152.933 Y153.542 E214.02236
G1 X152.098 Y153.974 E214.1112
G1 X151.477 Y154.25 E214.17542
G1 X150.828 Y154.452 E214.23965
G1 X150.385 Y154.543 E214.28239
G1 X149.459 Y154.696 E214.37108
G1 X148.518 Y154.773 E214.4603
G1 X74.501 Y154.775 E221.45491
