;FLAVOR:UltiGCode
;TIME:1114
;MATERIAL:1955
;MATERIAL2:0
;NOZZLE_DIAMETER:0.4
;Generated with Cura_SteamEngine 3.2.1
M82 ;absolute extrusion mode

;LAYER_COUNT:57
;LAYER:0
M107
G0 F4500 X92.918 Y96.644 Z0.27
;TYPE:SKIRT
G1 F1800 X93.288 Y96.342 E0.04513
G1 X93.702 Y96.024 E0.09447
G1 X94.355 Y95.573 E0.16946
G1 X95.05 Y95.19 E0.24445
G1 X95.481 Y94.995 E0.28916
G1 X95.963 Y94.795 E0.33847
G1 X96.71 Y94.529 E0.4134
G1 X97.48 Y94.338 E0.48837
G1 X97.943 Y94.263 E0.5327
G1 X98.462 Y94.194 E0.58217
G1 X99.253 Y94.129 E0.65718
G1 X100.046 Y94.144 E0.73213
G1 X100.834 Y94.239 E0.80713
G1 X101.608 Y94.412 E0.88208
G1 X102.361 Y94.663 E0.95709
G1 X103.085 Y94.988 E1.03208
G1 X103.772 Y95.385 E1.10707
G1 X104.416 Y95.848 E1.18202
G1 X105.01 Y96.374 E1.257
G1 X105.549 Y96.957 E1.33203
G1 X106.025 Y97.591 E1.40695
G1 X106.436 Y98.271 E1.48203
G1 X106.776 Y98.987 E1.55694
G1 X107.042 Y99.735 E1.63196
G1 X107.232 Y100.505 E1.70691
G1 X107.343 Y101.291 E1.78192
G1 X107.375 Y102 E1.84899
G1 X107.375 Y102.996 E1.94311
G1 X107.335 Y103.788 E2.01805
G1 X107.216 Y104.573 E2.09308
G1 X107.018 Y105.341 E2.16803
G1 X106.743 Y106.086 E2.24308
G1 X106.396 Y106.799 E2.31801
G1 X106.379 Y106.827 E2.32111
G1 X106.393 Y112.148 E2.82394
G1 X106.859 Y112.176 E2.86806
G1 X107.642 Y112.302 E2.943
G1 X108.409 Y112.506 E3.01801
G1 X109.151 Y112.787 E3.09298
G1 X109.861 Y113.141 E3.16796
G1 X110.532 Y113.564 E3.24291
G1 X111.157 Y114.053 E3.31791
G1 X111.496 Y114.378 E3.36229
G1 X111.55 Y114.32 E3.36977
G1 X112.149 Y113.8 E3.44473
G1 X112.798 Y113.344 E3.51969
G1 X113.49 Y112.955 E3.59471
G1 X114.217 Y112.637 E3.66969
G1 X114.973 Y112.394 E3.74474
G1 X115.749 Y112.229 E3.81971
G1 X116.537 Y112.143 E3.89462
G1 X116.593 Y112.141 E3.89991
G1 X116.594 Y106.763 E4.40813
G1 X116.339 Y106.272 E4.46042
G1 X116.045 Y105.534 E4.53549
G1 X115.828 Y104.771 E4.61045
G1 X115.688 Y103.99 E4.68543
G1 X115.625 Y102.996 E4.77955
G1 X115.625 Y102 E4.87367
G1 X115.665 Y101.208 E4.94861
G1 X115.784 Y100.423 E5.02364
G1 X115.982 Y99.655 E5.09859
G1 X116.257 Y98.91 E5.17364
G1 X116.604 Y98.197 E5.24857
G1 X117.022 Y97.522 E5.3236
G1 X117.505 Y96.893 E5.39854
G1 X118.05 Y96.316 E5.47355
G1 X118.649 Y95.796 E5.54851
G1 X119.298 Y95.34 E5.62346
G1 X119.99 Y94.951 E5.69848
G1 X120.717 Y94.633 E5.77347
G1 X121.473 Y94.39 E5.84851
G1 X122.249 Y94.225 E5.92348
G1 X123.037 Y94.139 E5.99839
G1 X123.831 Y94.132 E6.07343
G1 X124.538 Y94.194 E6.14049
G1 X125.057 Y94.263 E6.18997
G1 X125.837 Y94.407 E6.26493
G1 X126.599 Y94.629 E6.33993
G1 X127.035 Y94.794 E6.38398
G1 X127.515 Y94.993 E6.43309
G1 X128.232 Y95.334 E6.50812
G1 X128.911 Y95.745 E6.58312
G1 X129.287 Y96.015 E6.62686
G1 X129.701 Y96.332 E6.67614
G1 X130.305 Y96.846 E6.75109
G1 X130.856 Y97.418 E6.82614
G1 X131.158 Y97.788 E6.87127
G1 X131.476 Y98.202 E6.92061
G1 X131.927 Y98.855 E6.9956
G1 X132.31 Y99.55 E7.07059
G1 X132.505 Y99.981 E7.1153
G1 X132.705 Y100.463 E7.16461
G1 X132.971 Y101.21 E7.23954
G1 X133.162 Y101.98 E7.31451
G1 X133.237 Y102.441 E7.35865
G1 X133.306 Y102.959 E7.40804
G1 X133.375 Y104.026 E7.50908
G1 X133.332 Y116.679 E8.70479
G1 X133.289 Y117.471 E8.77975
G1 X133.167 Y118.255 E8.85473
G1 X133.065 Y118.687 E8.89667
G1 X132.728 Y119.947 E9.01993
G1 X132.484 Y120.702 E9.09491
G1 X132.166 Y121.429 E9.1699
G1 X131.94 Y121.849 E9.21497
G1 X131.286 Y122.982 E9.33859
G1 X130.856 Y123.648 E9.41351
G1 X130.36 Y124.268 E9.48854
G1 X130.034 Y124.613 E9.53339
G1 X129.113 Y125.534 E9.65648
G1 X128.525 Y126.067 E9.73148
G1 X127.886 Y126.537 E9.80644
G1 X127.482 Y126.786 E9.85128
G1 X126.349 Y127.44 E9.97491
G1 X125.643 Y127.802 E10.04989
G1 X124.903 Y128.09 E10.12493
G1 X124.447 Y128.228 E10.16995
G1 X123.187 Y128.565 E10.2932
G1 X122.411 Y128.731 E10.36819
G1 X121.234 Y128.832 E10.47983
G1 X117.082 Y128.875 E10.87221
G1 X116.289 Y128.843 E10.94721
G1 X115.503 Y128.731 E11.02224
G1 X114.733 Y128.542 E11.09717
G1 X113.985 Y128.275 E11.17222
G1 X113.268 Y127.935 E11.24721
G1 X112.59 Y127.524 E11.32213
G1 X111.955 Y127.047 E11.39718
G1 X111.502 Y126.629 E11.45543
G1 X111.45 Y126.684 E11.46259
G1 X110.851 Y127.204 E11.53755
G1 X110.202 Y127.66 E11.6125
G1 X109.51 Y128.049 E11.68752
G1 X108.783 Y128.367 E11.76251
G1 X108.027 Y128.61 E11.83755
G1 X107.251 Y128.775 E11.91252
G1 X106.463 Y128.861 E11.98743
G1 X105.918 Y128.875 E12.03895
G1 X101.766 Y128.832 E12.43133
G1 X100.974 Y128.783 E12.50632
G1 X99.813 Y128.565 E12.61795
G1 X98.553 Y128.228 E12.74121
G1 X97.798 Y127.984 E12.81619
G1 X97.071 Y127.666 E12.89117
G1 X96.651 Y127.44 E12.93624
G1 X95.518 Y126.786 E13.05987
G1 X94.852 Y126.356 E13.13479
G1 X94.232 Y125.86 E13.20982
G1 X93.887 Y125.534 E13.25467
G1 X92.966 Y124.613 E13.37776
G1 X92.433 Y124.025 E13.45275
G1 X91.963 Y123.386 E13.52772
G1 X91.714 Y122.982 E13.57256
G1 X91.06 Y121.849 E13.69619
G1 X90.698 Y121.143 E13.77116
G1 X90.41 Y120.403 E13.8462
G1 X90.272 Y119.947 E13.89123
G1 X89.935 Y118.687 E14.01448
G1 X89.769 Y117.911 E14.08947
G1 X89.682 Y117.122 E14.16448
G1 X89.668 Y116.679 E14.20637
G1 X89.625 Y104.027 E15.40199
G1 X89.694 Y102.962 E15.50284
G1 X89.763 Y102.443 E15.55232
G1 X89.907 Y101.663 E15.62728
G1 X90.129 Y100.901 E15.70228
G1 X90.294 Y100.465 E15.74633
G1 X90.493 Y99.985 E15.79544
G1 X90.834 Y99.268 E15.87046
G1 X91.245 Y98.589 E15.94547
G1 X91.515 Y98.213 E15.98921
G1 X91.832 Y97.799 E16.03849
G1 X92.346 Y97.195 E16.11344
G1 X92.918 Y96.644 E16.18849
G0 F4500 X93.174 Y96.886
G1 F1800 X93.501 Y96.619 E16.22838
G1 X93.915 Y96.301 E16.27772
G1 X94.554 Y95.861 E16.35103
G1 X95.234 Y95.489 E16.42428
G1 X95.615 Y95.319 E16.46371
G1 X96.097 Y95.119 E16.51302
G1 X96.828 Y94.859 E16.58634
G1 X97.581 Y94.675 E16.65959
G1 X97.989 Y94.61 E16.69863
G1 X98.508 Y94.541 E16.74811
G1 X99.281 Y94.478 E16.8214
G1 X100.057 Y94.496 E16.89475
G1 X100.826 Y94.593 E16.968
G1 X101.582 Y94.769 E17.04135
G1 X102.315 Y95.021 E17.1146
G1 X103.018 Y95.348 E17.18787
G1 X103.685 Y95.746 E17.26127
G1 X104.306 Y96.21 E17.33453
G1 X104.877 Y96.735 E17.40783
G1 X105.39 Y97.317 E17.48114
G1 X105.841 Y97.948 E17.55444
G1 X106.224 Y98.622 E17.62769
G1 X106.536 Y99.332 E17.70098
G1 X106.773 Y100.071 E17.77432
G1 X106.933 Y100.83 E17.84762
G1 X107.014 Y101.601 E17.92088
G1 X107.025 Y102 E17.9586
G1 X107.025 Y102.996 E18.05272
G1 X106.985 Y103.771 E18.12606
G1 X106.866 Y104.537 E18.19931
G1 X106.668 Y105.287 E18.27262
G1 X106.394 Y106.013 E18.34595
G1 X106.047 Y106.706 E18.41919
G1 X106.028 Y106.735 E18.42246
G1 X106.044 Y112.479 E18.96527
G1 X106.064 Y112.479 E18.96716
G1 X106.838 Y112.526 E19.04044
G1 X107.603 Y112.652 E19.11371
G1 X108.351 Y112.856 E19.18698
G1 X109.075 Y113.136 E19.26033
G1 X109.765 Y113.489 E19.33358
G1 X110.416 Y113.911 E19.40689
G1 X111.02 Y114.398 E19.48021
G1 X111.503 Y114.878 E19.54456
G1 X111.894 Y114.477 E19.59749
G1 X112.49 Y113.98 E19.67082
G1 X113.134 Y113.548 E19.7441
G1 X113.819 Y113.185 E19.81736
G1 X114.538 Y112.893 E19.8907
G1 X115.283 Y112.678 E19.96397
G1 X116.046 Y112.54 E20.03725
G1 X116.94 Y112.479 E20.12193
G1 X116.943 Y112.479 E20.12221
G1 X116.944 Y106.686 E20.66965
G1 X116.929 Y106.662 E20.67232
G1 X116.586 Y105.966 E20.74565
G1 X116.317 Y105.239 E20.8189
G1 X116.124 Y104.488 E20.89218
G1 X116.01 Y103.721 E20.96546
G1 X115.975 Y102.996 E21.03405
G1 X115.975 Y102 E21.12817
G1 X116.015 Y101.225 E21.2015
G1 X116.134 Y100.459 E21.27476
G1 X116.332 Y99.709 E21.34806
G1 X116.606 Y98.983 E21.42139
G1 X116.953 Y98.29 E21.49463
G1 X117.37 Y97.636 E21.56793
G1 X117.852 Y97.028 E21.64125
G1 X118.394 Y96.473 E21.71456
G1 X118.99 Y95.976 E21.78789
G1 X119.634 Y95.544 E21.86118
G1 X120.319 Y95.181 E21.93444
G1 X121.038 Y94.889 E22.00777
G1 X121.783 Y94.674 E22.08105
G1 X122.546 Y94.536 E22.15432
G1 X123.319 Y94.477 E22.22758
G1 X124.095 Y94.499 E22.30094
G1 X124.492 Y94.541 E22.33867
G1 X125.011 Y94.61 E22.38815
G1 X125.773 Y94.751 E22.46138
G1 X126.517 Y94.971 E22.5347
G1 X126.901 Y95.118 E22.57355
G1 X127.381 Y95.317 E22.62265
G1 X128.081 Y95.65 E22.69591
G1 X128.743 Y96.054 E22.7692
G1 X129.074 Y96.293 E22.80778
G1 X129.488 Y96.61 E22.85705
G1 X130.079 Y97.113 E22.93039
G1 X130.614 Y97.674 E23.00365
G1 X130.881 Y98.001 E23.04354
G1 X131.199 Y98.415 E23.09288
G1 X131.639 Y99.054 E23.16619
G1 X132.011 Y99.734 E23.23944
G1 X132.181 Y100.115 E23.27886
G1 X132.381 Y100.597 E23.32818
G1 X132.641 Y101.328 E23.4015
G1 X132.825 Y102.081 E23.47475
G1 X132.89 Y102.487 E23.51361
G1 X132.959 Y103.005 E23.56299
G1 X133.025 Y104.025 E23.65958
G1 X132.982 Y116.678 E24.8553
G1 X132.939 Y117.452 E24.92855
G1 X132.817 Y118.218 E25.00185
G1 X132.726 Y118.596 E25.03859
G1 X132.389 Y119.856 E25.16185
G1 X132.151 Y120.594 E25.23513
G1 X131.837 Y121.304 E25.30849
G1 X131.637 Y121.674 E25.34824
G1 X130.983 Y122.807 E25.47186
G1 X130.561 Y123.458 E25.54518
G1 X130.075 Y124.062 E25.61844
G1 X129.787 Y124.366 E25.65801
G1 X128.866 Y125.287 E25.7811
G1 X128.29 Y125.806 E25.85436
G1 X127.664 Y126.264 E25.92766
G1 X127.307 Y126.483 E25.96724
G1 X126.174 Y127.137 E26.09087
G1 X125.483 Y127.49 E26.16419
G1 X124.76 Y127.769 E26.23743
G1 X124.356 Y127.889 E26.27725
G1 X123.096 Y128.226 E26.40051
G1 X122.338 Y128.388 E26.47376
G1 X121.23 Y128.482 E26.57884
G1 X117.078 Y128.525 E26.97123
G1 X116.303 Y128.493 E27.04453
G1 X115.535 Y128.381 E27.11787
G1 X114.783 Y128.191 E27.19117
G1 X114.055 Y127.925 E27.26441
G1 X113.358 Y127.585 E27.3377
G1 X112.699 Y127.175 E27.41104
G1 X112.087 Y126.699 E27.48431
G1 X111.526 Y126.163 E27.55763
G1 X111.496 Y126.128 E27.56199
G1 X111.106 Y126.527 E27.61471
G1 X110.51 Y127.024 E27.68805
G1 X109.866 Y127.456 E27.76133
G1 X109.181 Y127.819 E27.83459
G1 X108.462 Y128.111 E27.90792
G1 X107.717 Y128.326 E27.9812
G1 X106.954 Y128.464 E28.05447
G1 X105.922 Y128.525 E28.15217
G1 X101.77 Y128.482 E28.54455
G1 X100.996 Y128.434 E28.61784
G1 X99.904 Y128.226 E28.72289
G1 X98.644 Y127.889 E28.84614
G1 X97.906 Y127.651 E28.91942
G1 X97.196 Y127.337 E28.99278
G1 X96.826 Y127.137 E29.03253
G1 X95.693 Y126.483 E29.15615
G1 X95.042 Y126.061 E29.22947
G1 X94.438 Y125.575 E29.30273
G1 X94.134 Y125.287 E29.3423
G1 X93.213 Y124.366 E29.46539
G1 X92.694 Y123.79 E29.53866
G1 X92.236 Y123.164 E29.61196
G1 X92.017 Y122.807 E29.65153
G1 X91.363 Y121.674 E29.77516
G1 X91.01 Y120.983 E29.84849
G1 X90.731 Y120.26 E29.92172
G1 X90.611 Y119.856 E29.96155
G1 X90.274 Y118.596 E30.0848
G1 X90.112 Y117.838 E30.15805
G1 X90.029 Y117.066 E30.23143
G1 X90.018 Y116.678 E30.26811
G1 X89.975 Y104.026 E31.46373
G1 X90.041 Y103.008 E31.56013
G1 X90.11 Y102.489 E31.60961
G1 X90.251 Y101.727 E31.68284
G1 X90.471 Y100.983 E31.75616
G1 X90.618 Y100.599 E31.79501
G1 X90.817 Y100.119 E31.84412
G1 X91.15 Y99.419 E31.91737
G1 X91.554 Y98.757 E31.99066
G1 X91.793 Y98.426 E32.02924
G1 X92.11 Y98.012 E32.07851
G1 X92.613 Y97.421 E32.15185
G1 X93.174 Y96.886 E32.22511
G0 F4500 X93.714 Y96.897
G1 F1800 X94.128 Y96.579 E32.27444
G1 X94.752 Y96.15 E32.346
G1 X95.749 Y95.642 E32.45174
G1 X96.231 Y95.442 E32.50106
G1 X96.945 Y95.189 E32.57264
G1 X98.035 Y94.957 E32.67795
G1 X98.554 Y94.888 E32.72743
G1 X99.309 Y94.828 E32.799
G1 X100.067 Y94.847 E32.87066
G1 X100.817 Y94.947 E32.94216
G1 X101.553 Y95.125 E33.01372
G1 X102.267 Y95.38 E33.08536
G1 X102.949 Y95.708 E33.15688
G1 X103.593 Y96.107 E33.22847
G1 X104.191 Y96.571 E33.3
G1 X104.738 Y97.096 E33.37165
G1 X105.225 Y97.675 E33.44314
G1 X105.649 Y98.303 E33.51475
G1 X106.005 Y98.972 E33.58636
G1 X106.288 Y99.674 E33.65789
G1 X106.495 Y100.403 E33.7295
G1 X106.624 Y101.149 E33.80105
G1 X106.675 Y102 E33.88161
G1 X106.675 Y102.996 E33.97573
G1 X106.635 Y103.752 E34.04727
G1 X106.516 Y104.5 E34.11885
G1 X106.318 Y105.231 E34.19042
G1 X106.044 Y105.938 E34.26207
G1 X105.698 Y106.611 E34.33358
G1 X105.678 Y106.641 E34.33699
G1 X105.695 Y112.826 E34.92147
G1 X106.061 Y112.829 E34.95606
G1 X106.817 Y112.876 E35.02764
G1 X107.563 Y113.001 E35.09912
G1 X108.293 Y113.205 E35.17075
G1 X108.997 Y113.485 E35.24235
G1 X109.667 Y113.837 E35.31387
G1 X110.297 Y114.258 E35.38547
G1 X110.879 Y114.743 E35.45707
G1 X111.406 Y115.286 E35.52857
G1 X111.502 Y115.409 E35.54332
G1 X111.698 Y115.17 E35.57253
G1 X112.237 Y114.638 E35.64409
G1 X112.829 Y114.166 E35.71564
G1 X113.468 Y113.759 E35.78724
G1 X114.146 Y113.421 E35.85883
G1 X114.855 Y113.157 E35.93032
G1 X115.589 Y112.969 E36.00193
G1 X116.338 Y112.86 E36.07345
G1 X116.943 Y112.829 E36.1307
G1 X117.293 Y112.826 E36.16377
G1 X117.294 Y106.578 E36.75421
G1 X117.158 Y106.351 E36.77922
G1 X116.839 Y105.664 E36.8508
G1 X116.595 Y104.947 E36.92237
G1 X116.428 Y104.208 E36.99397
G1 X116.34 Y103.456 E37.06551
G1 X116.325 Y102.996 E37.10901
G1 X116.325 Y102 E37.20313
G1 X116.365 Y101.244 E37.27467
G1 X116.484 Y100.496 E37.34625
G1 X116.682 Y99.765 E37.41782
G1 X116.956 Y99.058 E37.48947
G1 X117.302 Y98.385 E37.56098
G1 X117.718 Y97.752 E37.63256
G1 X118.198 Y97.166 E37.70414
G1 X118.737 Y96.634 E37.77571
G1 X119.329 Y96.162 E37.84726
G1 X119.968 Y95.755 E37.91885
G1 X120.646 Y95.417 E37.99044
G1 X121.355 Y95.153 E38.06194
G1 X122.089 Y94.965 E38.13354
G1 X122.838 Y94.856 E38.20507
G1 X123.595 Y94.826 E38.27666
G1 X124.446 Y94.888 E38.35729
G1 X124.965 Y94.957 E38.40677
G1 X125.709 Y95.096 E38.47829
G1 X126.767 Y95.441 E38.58346
G1 X127.247 Y95.64 E38.63256
G1 X127.93 Y95.967 E38.70412
G1 X128.861 Y96.571 E38.80899
G1 X129.275 Y96.888 E38.85827
G1 X129.851 Y97.38 E38.92985
G1 X130.603 Y98.214 E39.03597
G1 X130.921 Y98.628 E39.08531
G1 X131.35 Y99.252 E39.15687
G1 X131.858 Y100.249 E39.26261
G1 X132.058 Y100.731 E39.31192
G1 X132.311 Y101.445 E39.38351
G1 X132.543 Y102.534 E39.48873
G1 X132.612 Y103.052 E39.53811
G1 X132.675 Y104.023 E39.63006
G1 X132.632 Y116.676 E40.82578
G1 X132.589 Y117.433 E40.89743
G1 X132.388 Y118.506 E41.00059
G1 X132.051 Y119.766 E41.12385
G1 X131.817 Y120.486 E41.19539
G1 X131.334 Y121.499 E41.30144
G1 X130.68 Y122.632 E41.42507
G1 X130.267 Y123.267 E41.49665
G1 X129.539 Y124.118 E41.60248
G1 X128.618 Y125.039 E41.72557
G1 X128.055 Y125.546 E41.79716
G1 X127.132 Y126.18 E41.90298
G1 X125.999 Y126.834 E42.02661
G1 X125.324 Y127.178 E42.0982
G1 X124.266 Y127.551 E42.20421
G1 X123.006 Y127.888 E42.32747
G1 X122.265 Y128.045 E42.39905
G1 X121.226 Y128.132 E42.49758
G1 X117.074 Y128.175 E42.88996
G1 X116.318 Y128.142 E42.96147
G1 X115.569 Y128.031 E43.03303
G1 X114.835 Y127.841 E43.10468
G1 X114.126 Y127.574 E43.17627
G1 X113.449 Y127.235 E43.24782
G1 X112.812 Y126.826 E43.31935
G1 X112.221 Y126.352 E43.39095
G1 X111.684 Y125.818 E43.46251
G1 X111.5 Y125.592 E43.49005
G1 X111.302 Y125.834 E43.5196
G1 X110.763 Y126.366 E43.59117
G1 X110.171 Y126.838 E43.66272
G1 X109.532 Y127.245 E43.73431
G1 X108.854 Y127.583 E43.8059
G1 X108.145 Y127.847 E43.8774
G1 X107.411 Y128.035 E43.949
G1 X106.662 Y128.144 E44.02053
G1 X105.926 Y128.175 E44.09014
G1 X101.774 Y128.132 E44.48253
G1 X101.018 Y128.084 E44.55411
G1 X99.994 Y127.888 E44.65264
G1 X98.734 Y127.551 E44.77589
G1 X98.014 Y127.317 E44.84743
G1 X97.001 Y126.834 E44.95349
G1 X95.868 Y126.18 E45.07711
G1 X95.233 Y125.767 E45.1487
G1 X94.382 Y125.039 E45.25453
G1 X93.461 Y124.118 E45.37761
G1 X92.954 Y123.555 E45.44921
G1 X92.32 Y122.632 E45.55503
G1 X91.666 Y121.499 E45.67865
G1 X91.322 Y120.824 E45.75025
G1 X90.949 Y119.766 E45.85626
G1 X90.612 Y118.506 E45.97951
G1 X90.455 Y117.765 E46.05109
G1 X90.368 Y116.676 E46.15433
G1 X90.325 Y104.024 E47.34995
G1 X90.388 Y103.054 E47.44181
G1 X90.457 Y102.535 E47.49129
G1 X90.596 Y101.791 E47.56281
G1 X90.941 Y100.733 E47.66797
G1 X91.14 Y100.253 E47.71708
G1 X91.467 Y99.57 E47.78864
G1 X92.071 Y98.639 E47.89351
G1 X92.388 Y98.225 E47.94279
G1 X92.88 Y97.649 E48.01437
G1 X93.714 Y96.897 E48.12049
G0 F4500 X93.928 Y97.174
G1 F1800 X94.342 Y96.856 E48.16982
G1 X94.951 Y96.439 E48.23957
G1 X95.883 Y95.965 E48.33838
G1 X96.365 Y95.765 E48.3877
G1 X97.062 Y95.519 E48.45755
G1 X98.082 Y95.304 E48.55605
G1 X98.601 Y95.235 E48.60553
G1 X99.337 Y95.177 E48.6753
G1 X100.075 Y95.199 E48.74507
G1 X100.807 Y95.301 E48.81491
G1 X101.523 Y95.482 E48.8847
G1 X102.216 Y95.739 E48.95455
G1 X102.876 Y96.069 E49.02428
G1 X103.498 Y96.468 E49.09412
