;FLAVOR:UltiGCode
;TIME:584
;MATERIAL:986
;MATERIAL2:0
;NOZZLE_DIAMETER:0.4
;Generated with Cura_SteamEngine 3.2.1
M82 ;absolute extrusion mode

;LAYER_COUNT:40
;LAYER:0
M107
G0 F4500 X92.918 Y96.644 Z0.27
;TYPE:SKIRT
G1 F1800 X93.288 Y96.342 E0.04513
G1 X93.702 Y96.024 E0.09447
G1 X94.355 Y95.573 E0.16946
G1 X95.05 Y95.19 E0.24445
G1 X95.481 Y94.995 E0.28916
G1 X95.963 Y94.795 E0.33847
G1 X96.71 Y94.529 E0.4134
G1 X97.48 Y94.338 E0.48837
G1 X97.943 Y94.263 E0.5327
G1 X98.462 Y94.194 E0.58217
G1 X99.506 Y94.125 E0.68105
G1 X123.766 Y94.142 E2.97362
G1 X124.558 Y94.183 E3.04856
G1 X125.342 Y94.303 E3.12351
G1 X125.783 Y94.406 E3.16631
G1 X126.287 Y94.54 E3.21559
G1 X127.043 Y94.783 E3.29063
G1 X127.77 Y95.1 E3.36558
G1 X128.205 Y95.333 E3.41222
G1 X128.66 Y95.596 E3.46188
G1 X129.326 Y96.027 E3.53685
G1 X129.945 Y96.523 E3.6118
G1 X130.287 Y96.846 E3.65626
G1 X130.654 Y97.213 E3.70531
G1 X131.187 Y97.801 E3.7803
G1 X131.657 Y98.44 E3.85526
G1 X131.899 Y98.832 E3.8988
G1 X132.161 Y99.284 E3.94817
G1 X132.524 Y99.989 E4.0231
G1 X132.814 Y100.728 E4.09812
G1 X132.958 Y101.207 E4.14539
G1 X133.093 Y101.714 E4.19497
G1 X133.258 Y102.49 E4.26994
G1 X133.344 Y103.279 E4.34495
G1 X133.358 Y103.729 E4.38749
G1 X133.375 Y115.989 E5.54606
G1 X133.307 Y117.031 E5.64474
G1 X133.136 Y118.326 E5.76818
G1 X132.993 Y119.106 E5.84312
G1 X132.772 Y119.868 E5.91809
G1 X132.604 Y120.31 E5.96278
G1 X132.105 Y121.514 E6.08594
G1 X131.765 Y122.231 E6.16093
G1 X131.354 Y122.91 E6.23594
G1 X131.083 Y123.286 E6.27973
G1 X130.29 Y124.322 E6.40303
G1 X129.777 Y124.927 E6.47798
G1 X129.205 Y125.477 E6.55297
G1 X128.827 Y125.785 E6.59905
G1 X127.791 Y126.579 E6.7224
G1 X127.138 Y127.03 E6.79739
G1 X126.443 Y127.412 E6.87234
G1 X126.017 Y127.604 E6.9165
G1 X124.811 Y128.104 E7.03987
G1 X124.064 Y128.37 E7.1148
G1 X123.293 Y128.56 E7.18984
G1 X122.826 Y128.636 E7.23455
G1 X121.531 Y128.807 E7.35799
G1 X120.482 Y128.875 E7.45733
G1 X101.83 Y128.832 E9.21995
G1 X101.037 Y128.79 E9.29499
G1 X100.253 Y128.669 E9.36996
G1 X99.813 Y128.565 E9.41269
G1 X98.553 Y128.228 E9.53594
G1 X97.798 Y127.984 E9.61092
G1 X97.071 Y127.666 E9.68591
G1 X96.651 Y127.44 E9.73098
G1 X95.518 Y126.786 E9.8546
G1 X94.852 Y126.356 E9.92952
G1 X94.232 Y125.86 E10.00455
G1 X93.887 Y125.534 E10.04941
G1 X92.966 Y124.613 E10.17249
G1 X92.433 Y124.025 E10.24749
G1 X91.963 Y123.386 E10.32245
G1 X91.714 Y122.982 E10.3673
G1 X91.06 Y121.849 E10.49092
G1 X90.698 Y121.143 E10.5659
G1 X90.41 Y120.403 E10.64094
G1 X90.272 Y119.947 E10.68596
G1 X89.935 Y118.687 E10.80922
G1 X89.769 Y117.911 E10.88421
G1 X89.682 Y117.122 E10.95922
G1 X89.668 Y116.679 E11.0011
G1 X89.625 Y104.027 E12.19672
G1 X89.694 Y102.962 E12.29758
G1 X89.763 Y102.443 E12.34705
G1 X89.907 Y101.663 E12.42201
G1 X90.129 Y100.901 E12.49701
G1 X90.294 Y100.465 E12.54107
G1 X90.493 Y99.985 E12.59017
G1 X90.834 Y99.268 E12.6652
G1 X91.245 Y98.589 E12.7402
G1 X91.515 Y98.213 E12.78395
G1 X91.832 Y97.799 E12.83322
G1 X92.346 Y97.195 E12.90817
G1 X92.918 Y96.644 E12.98323
G0 F4500 X93.174 Y96.886
G1 F1800 X93.501 Y96.619 E13.02312
G1 X93.915 Y96.301 E13.07245
G1 X94.554 Y95.861 E13.14577
G1 X95.234 Y95.489 E13.21901
G1 X95.615 Y95.319 E13.25844
G1 X96.097 Y95.119 E13.30776
G1 X96.828 Y94.859 E13.38107
G1 X97.581 Y94.675 E13.45433
G1 X97.989 Y94.61 E13.49337
G1 X98.508 Y94.541 E13.54285
G1 X99.505 Y94.475 E13.63727
G1 X123.765 Y94.492 E15.92984
G1 X124.54 Y94.533 E16.00318
G1 X125.306 Y94.653 E16.07645
G1 X125.694 Y94.745 E16.11413
G1 X126.198 Y94.879 E16.16341
G1 X126.936 Y95.116 E16.23666
G1 X127.646 Y95.429 E16.30999
G1 X128.03 Y95.636 E16.35121
G1 X128.485 Y95.899 E16.40088
G1 X129.135 Y96.321 E16.47411
G1 X129.739 Y96.808 E16.54743
G1 X130.04 Y97.093 E16.5866
G1 X130.407 Y97.46 E16.63565
G1 X130.926 Y98.036 E16.70892
G1 X131.384 Y98.662 E16.78222
G1 X131.596 Y99.007 E16.82049
G1 X131.858 Y99.459 E16.86986
G1 X132.212 Y100.149 E16.94314
G1 X132.493 Y100.872 E17.01644
G1 X132.62 Y101.297 E17.05836
G1 X132.755 Y101.804 E17.10794
G1 X132.915 Y102.563 E17.18124
G1 X132.997 Y103.334 E17.25451
G1 X133.008 Y103.73 E17.29195
G1 X133.025 Y115.99 E18.45052
G1 X132.96 Y116.985 E18.54475
G1 X132.789 Y118.28 E18.66819
G1 X132.648 Y119.043 E18.74151
G1 X132.429 Y119.787 E18.81481
G1 X132.281 Y120.176 E18.85414
G1 X131.782 Y121.38 E18.9773
G1 X131.448 Y122.08 E19.05059
G1 X131.044 Y122.743 E19.12396
G1 X130.805 Y123.073 E19.16247
G1 X130.012 Y124.109 E19.28576
G1 X129.51 Y124.7 E19.35904
G1 X128.949 Y125.236 E19.43236
G1 X128.614 Y125.508 E19.47314
G1 X127.578 Y126.302 E19.59648
G1 X126.939 Y126.741 E19.66975
G1 X126.258 Y127.112 E19.74303
G1 X125.883 Y127.28 E19.78186
G1 X124.677 Y127.78 E19.90524
G1 X123.946 Y128.04 E19.97856
G1 X123.192 Y128.223 E20.05188
G1 X122.78 Y128.289 E20.09131
G1 X121.485 Y128.46 E20.21475
G1 X120.483 Y128.525 E20.30964
G1 X101.831 Y128.482 E22.07225
G1 X101.056 Y128.44 E22.1456
G1 X100.29 Y128.319 E22.21888
G1 X99.904 Y128.226 E22.2564
G1 X98.644 Y127.889 E22.37966
G1 X97.906 Y127.651 E22.45294
G1 X97.196 Y127.337 E22.5263
G1 X96.826 Y127.137 E22.56605
G1 X95.693 Y126.483 E22.68967
G1 X95.042 Y126.061 E22.76299
G1 X94.438 Y125.575 E22.83625
G1 X94.134 Y125.287 E22.87582
G1 X93.213 Y124.366 E22.99891
G1 X92.694 Y123.79 E23.07218
G1 X92.236 Y123.164 E23.14548
G1 X92.017 Y122.807 E23.18505
G1 X91.363 Y121.674 E23.30868
G1 X91.01 Y120.983 E23.38201
G1 X90.731 Y120.26 E23.45524
G1 X90.611 Y119.856 E23.49507
G1 X90.274 Y118.596 E23.61832
G1 X90.112 Y117.838 E23.69157
G1 X90.029 Y117.066 E23.76494
G1 X90.018 Y116.678 E23.80163
G1 X89.975 Y104.026 E24.99725
G1 X90.041 Y103.008 E25.09365
G1 X90.11 Y102.489 E25.14313
G1 X90.251 Y101.727 E25.21636
G1 X90.471 Y100.983 E25.28968
G1 X90.618 Y100.599 E25.32853
G1 X90.817 Y100.119 E25.37764
G1 X91.15 Y99.419 E25.45089
G1 X91.554 Y98.757 E25.52418
G1 X91.793 Y98.426 E25.56276
G1 X92.11 Y98.012 E25.61203
G1 X92.613 Y97.421 E25.68537
G1 X93.174 Y96.886 E25.75863
G0 F4500 X93.714 Y96.897
G1 F1800 X94.128 Y96.579 E25.80796
G1 X94.752 Y96.15 E25.87952
G1 X95.749 Y95.642 E25.98526
G1 X96.231 Y95.442 E26.03458
G1 X96.945 Y95.189 E26.10616
G1 X98.035 Y94.957 E26.21147
G1 X98.554 Y94.888 E26.26095
G1 X99.505 Y94.825 E26.35102
G1 X123.765 Y94.842 E28.64359
G1 X124.521 Y94.883 E28.71513
G1 X125.604 Y95.083 E28.81921
G1 X126.108 Y95.217 E28.86849
G1 X126.828 Y95.45 E28.94
G1 X127.52 Y95.757 E29.01155
G1 X127.855 Y95.939 E29.04757
G1 X128.31 Y96.202 E29.09724
G1 X128.944 Y96.615 E29.16874
G1 X129.792 Y97.341 E29.27423
G1 X130.159 Y97.708 E29.32328
G1 X130.666 Y98.271 E29.39488
G1 X131.294 Y99.183 E29.49952
G1 X131.556 Y99.635 E29.54889
G1 X131.9 Y100.309 E29.6204
G1 X132.172 Y101.016 E29.69198
G1 X132.281 Y101.387 E29.72852
G1 X132.416 Y101.894 E29.77811
G1 X132.572 Y102.635 E29.84967
G1 X132.658 Y103.73 E29.95346
G1 X132.675 Y115.99 E31.11203
G1 X132.613 Y116.939 E31.2019
G1 X132.442 Y118.234 E31.32534
G1 X132.304 Y118.979 E31.39694
G1 X131.957 Y120.042 E31.50261
G1 X131.458 Y121.246 E31.62578
G1 X131.132 Y121.929 E31.6973
G1 X130.527 Y122.86 E31.80222
G1 X129.734 Y123.896 E31.92551
G1 X129.243 Y124.472 E31.99704
G1 X128.402 Y125.23 E32.10403
G1 X127.366 Y126.024 E32.22737
G1 X126.741 Y126.452 E32.29896
G1 X125.749 Y126.957 E32.40415
G1 X124.543 Y127.457 E32.52752
G1 X123.829 Y127.71 E32.59911
G1 X122.734 Y127.942 E32.70488
G1 X121.439 Y128.113 E32.82832
G1 X120.483 Y128.175 E32.91885
G1 X101.831 Y128.132 E34.68147
G1 X101.075 Y128.09 E34.75303
G1 X99.994 Y127.888 E34.85695
G1 X98.734 Y127.551 E34.9802
G1 X98.014 Y127.317 E35.05175
G1 X97.001 Y126.834 E35.1578
G1 X95.868 Y126.18 E35.28142
G1 X95.233 Y125.767 E35.35301
G1 X94.382 Y125.039 E35.45884
G1 X93.461 Y124.118 E35.58192
G1 X92.954 Y123.555 E35.65352
G1 X92.32 Y122.632 E35.75934
G1 X91.666 Y121.499 E35.88296
G1 X91.322 Y120.824 E35.95456
G1 X90.949 Y119.766 E36.06057
G1 X90.612 Y118.506 E36.18383
G1 X90.455 Y117.765 E36.25541
G1 X90.368 Y116.676 E36.35864
G1 X90.325 Y104.024 E37.55426
G1 X90.388 Y103.054 E37.64612
G1 X90.457 Y102.535 E37.6956
G1 X90.596 Y101.791 E37.76712
G1 X90.941 Y100.733 E37.87229
G1 X91.14 Y100.253 E37.92139
G1 X91.467 Y99.57 E37.99295
G1 X92.071 Y98.639 E38.09782
G1 X92.388 Y98.225 E38.1471
G1 X92.88 Y97.649 E38.21868
G1 X93.714 Y96.897 E38.3248
G0 F4500 X93.928 Y97.174
G1 F1800 X94.342 Y96.856 E38.37414
G1 X94.951 Y96.439 E38.44389
G1 X95.883 Y95.965 E38.5427
G1 X96.365 Y95.765 E38.59201
G1 X97.062 Y95.519 E38.66186
G1 X98.082 Y95.304 E38.76037
G1 X98.601 Y95.235 E38.80984
G1 X99.505 Y95.175 E38.89546
G1 X123.765 Y95.192 E41.18803
G1 X124.502 Y95.232 E41.25778
G1 X125.514 Y95.421 E41.35507
G1 X126.018 Y95.555 E41.40435
G1 X126.72 Y95.783 E41.4741
G1 X127.679 Y96.242 E41.57457
G1 X128.134 Y96.505 E41.62423
G1 X128.753 Y96.909 E41.69409
G1 X129.545 Y97.588 E41.79267
G1 X129.912 Y97.955 E41.84172
G1 X130.405 Y98.505 E41.91152
G1 X130.991 Y99.358 E42.00931
G1 X131.253 Y99.81 E42.05868
G1 X131.588 Y100.468 E42.12846
G1 X131.943 Y101.477 E42.22954
G1 X132.078 Y101.984 E42.27912
G1 X132.229 Y102.707 E42.34892
G1 X132.308 Y103.731 E42.44597
G1 X132.325 Y115.991 E43.60455
G1 X132.266 Y116.893 E43.68997
G1 X132.095 Y118.188 E43.81341
G1 X131.959 Y118.914 E43.88321
G1 X131.634 Y119.908 E43.98203
G1 X131.135 Y121.112 E44.1052
G1 X130.816 Y121.778 E44.17498
G1 X130.25 Y122.647 E44.27298
G1 X129.457 Y123.683 E44.39627
G1 X128.977 Y124.245 E44.46612
G1 X128.189 Y124.952 E44.56616
G1 X127.153 Y125.746 E44.68951
G1 X126.543 Y126.163 E44.75934
G1 X125.615 Y126.634 E44.85768
G1 X124.409 Y127.134 E44.98106
G1 X123.712 Y127.379 E45.05087
G1 X122.688 Y127.595 E45.14977
G1 X121.393 Y127.766 E45.27321
G1 X120.484 Y127.825 E45.35929
G1 X101.832 Y127.782 E47.12191
G1 X101.095 Y127.74 E47.19167
G1 X100.085 Y127.55 E47.28879
G1 X98.825 Y127.213 E47.41204
G1 X98.122 Y126.984 E47.48191
G1 X97.176 Y126.531 E47.58103
G1 X96.043 Y125.877 E47.70466
G1 X95.424 Y125.474 E47.77446
G1 X94.629 Y124.792 E47.87344
G1 X93.708 Y123.871 E47.99653
G1 X93.215 Y123.321 E48.06633
G1 X92.623 Y122.457 E48.1653
G1 X91.969 Y121.324 E48.28893
G1 X91.635 Y120.665 E48.35874
G1 X91.287 Y119.675 E48.45791
G1 X90.95 Y118.415 E48.58117
G1 X90.798 Y117.693 E48.65089
G1 X90.718 Y116.675 E48.74739
G1 X90.675 Y104.023 E49.94301
G1 X90.735 Y103.101 E50.03032
G1 X90.804 Y102.582 E50.0798
G1 X90.94 Y101.856 E50.1496
G1 X91.264 Y100.867 E50.24795
G1 X91.463 Y100.387 E50.29705
G1 X91.783 Y99.721 E50.36688
G1 X92.349 Y98.852 E50.46488
G1 X92.666 Y98.438 E50.51415
G1 X93.146 Y97.876 E50.584
G1 X93.928 Y97.174 E50.6833
G0 F4500 X94.141 Y97.452
G1 F1800 X94.555 Y97.134 E50.73264
G1 X95.149 Y96.728 E50.80063
G1 X96.017 Y96.288 E50.89259
G1 X96.499 Y96.088 E50.94191
G1 X97.178 Y95.85 E51.0099
G1 X98.128 Y95.65 E51.10164
G1 X98.647 Y95.581 E51.15112
G1 X99.505 Y95.525 E51.23237
G1 X123.765 Y95.542 E53.52494
G1 X124.483 Y95.582 E53.5929
G1 X125.424 Y95.759 E53.68338
G1 X125.928 Y95.893 E53.73267
G1 X126.612 Y96.117 E53.80068
G1 X127.504 Y96.545 E53.89418
G1 X127.959 Y96.808 E53.94384
G1 X128.561 Y97.202 E54.01183
G1 X129.298 Y97.835 E54.10364
G1 X129.665 Y98.202 E54.15269
G1 X130.144 Y98.739 E54.22069
G1 X130.688 Y99.534 E54.31172
G1 X130.95 Y99.986 E54.36109
G1 X131.276 Y100.627 E54.42905
G1 X131.605 Y101.567 E54.52316
G1 X131.74 Y102.074 E54.57274
G1 X131.886 Y102.778 E54.64069
G1 X131.958 Y103.731 E54.731
G1 X131.975 Y115.991 E55.88957
G1 X131.919 Y116.848 E55.97073
G1 X131.748 Y118.143 E56.09417
G1 X131.615 Y118.85 E56.16216
G1 X131.311 Y119.774 E56.25408
G1 X130.812 Y120.978 E56.37724
G1 X130.5 Y121.626 E56.44521
G1 X129.972 Y122.435 E56.5365
G1 X129.179 Y123.471 E56.65979
G1 X128.71 Y124.017 E56.72781
G1 X127.976 Y124.674 E56.8209
G1 X126.94 Y125.468 E56.94425
G1 X126.345 Y125.873 E57.01226
G1 X125.481 Y126.31 E57.10376
G1 X124.275 Y126.81 E57.22714
G1 X123.596 Y127.049 E57.29516
G1 X122.643 Y127.248 E57.38716
G1 X121.348 Y127.419 E57.5106
G1 X120.485 Y127.475 E57.59233
G1 X101.833 Y127.432 E59.35494
G1 X101.115 Y127.39 E59.42291
G1 X100.175 Y127.212 E59.51332
G1 X98.915 Y126.875 E59.63658
G1 X98.231 Y126.651 E59.70459
G1 X97.351 Y126.228 E59.79686
G1 X96.218 Y125.574 E59.92049
G1 X95.616 Y125.18 E59.98848
G1 X94.876 Y124.545 E60.08062
G1 X93.955 Y123.624 E60.20371
G1 X93.476 Y123.087 E60.27171
G1 X92.926 Y122.282 E60.36384
G1 X92.272 Y121.149 E60.48747
G1 X91.948 Y120.507 E60.55542
G1 X91.625 Y119.585 E60.64775
G1 X91.288 Y118.325 E60.771
G1 X91.141 Y117.621 E60.83896
G1 X91.068 Y116.674 E60.92872
G1 X91.025 Y104.022 E62.12434
G1 X91.081 Y103.147 E62.2072
G1 X91.15 Y102.628 E62.25668
G1 X91.285 Y101.921 E62.32469
G1 X91.588 Y101.001 E62.41623
G1 X91.787 Y100.521 E62.46533
G1 X92.099 Y99.873 E62.5333
G1 X92.627 Y99.065 E62.62451
G1 X92.944 Y98.651 E62.67378
G1 X93.412 Y98.104 E62.74181
G1 X94.141 Y97.452 E62.83424
G0 F4500 X94.354 Y97.73
G1 F1800 X94.768 Y97.412 E62.88357
G1 X95.346 Y97.018 E62.94967
G1 X96.152 Y96.612 E63.03496
G1 X96.634 Y96.412 E63.08427
G1 X97.294 Y96.181 E63.15035
G1 X98.174 Y95.997 E63.23531
G1 X98.693 Y95.928 E63.28479
G1 X99.504 Y95.875 E63.36159
G1 X123.764 Y95.892 E65.65416
G1 X124.463 Y95.932 E65.72032
G1 X125.334 Y96.098 E65.80412
G1 X125.838 Y96.232 E65.8534
G1 X126.503 Y96.45 E65.91953
G1 X127.329 Y96.848 E66.00618
G1 X127.784 Y97.111 E66.05584
G1 X128.369 Y97.495 E66.12197
G1 X129.05 Y98.083 E66.20699
G1 X129.417 Y98.45 E66.25604
G1 X129.883 Y98.972 E66.32217
G1 X130.385 Y99.709 E66.40643
G1 X130.647 Y100.161 E66.4558
G1 X130.963 Y100.786 E66.52199
G1 X131.267 Y101.657 E66.60917
G1 X131.402 Y102.164 E66.65875
G1 X131.543 Y102.849 E66.72484
G1 X131.608 Y103.732 E66.80851
G1 X131.625 Y115.992 E67.96708
G1 X131.572 Y116.802 E68.04379
G1 X131.401 Y118.097 E68.16723
G1 X131.27 Y118.784 E68.23332
G1 X130.987 Y119.64 E68.31851
G1 X130.488 Y120.844 E68.44168
G1 X130.184 Y121.474 E68.50778
G1 X129.694 Y122.222 E68.59228
G1 X128.901 Y123.258 E68.71557
G1 X128.444 Y123.788 E68.78171
G1 X127.763 Y124.396 E68.86798
G1 X126.727 Y125.19 E68.99133
G1 X126.148 Y125.584 E69.05751
G1 X125.347 Y125.987 E69.14224
G1 X124.141 Y126.487 E69.26562
G1 X123.48 Y126.718 E69.33179
G1 X122.597 Y126.901 E69.417
G1 X121.302 Y127.072 E69.54044
G1 X120.486 Y127.125 E69.61772
G1 X101.834 Y127.082 E71.38034
G1 X101.135 Y127.04 E71.44651
G1 X100.265 Y126.874 E71.53021
G1 X99.005 Y126.537 E71.65346
G1 X98.341 Y126.318 E71.71954
G1 X97.526 Y125.925 E71.80504
G1 X96.393 Y125.271 E71.92867
G1 X95.808 Y124.887 E71.9948
G1 X95.124 Y124.297 E72.08016
G1 X94.203 Y123.376 E72.20324
G1 X93.737 Y122.854 E72.26937
G1 X93.229 Y122.107 E72.35474
G1 X92.575 Y120.974 E72.47836
G1 X92.261 Y120.349 E72.54446
G1 X91.963 Y119.495 E72.62993
G1 X91.626 Y118.235 E72.75319
G1 X91.484 Y117.549 E72.81939
G1 X91.418 Y116.673 E72.90241
G1 X91.375 Y104.021 E74.09803
G1 X91.428 Y103.193 E74.17644
G1 X91.497 Y102.674 E74.22591
G1 X91.629 Y101.987 E74.29202
G1 X91.911 Y101.135 E74.37683
G1 X92.11 Y100.655 E74.42593
G1 X92.414 Y100.025 E74.49204
G1 X92.905 Y99.277 E74.57659
G1 X93.222 Y98.863 E74.62587
G1 X93.678 Y98.333 E74.69194
G1 X94.354 Y97.73 E74.77754
G0 F4500 X94.567 Y98.007
G1 F1800 X94.981 Y97.689 E74.82687
G1 X95.543 Y97.308 E74.89104
G1 X96.286 Y96.935 E74.9696
G1 X96.768 Y96.735 E75.01892
G1 X97.409 Y96.512 E75.08305
G1 X98.22 Y96.344 E75.16132
G1 X98.739 Y96.275 E75.2108
G1 X99.504 Y96.225 E75.28324
G1 X123.764 Y96.242 E77.57581
G1 X124.442 Y96.282 E77.64
G1 X125.244 Y96.436 E77.71717
G1 X125.748 Y96.57 E77.76645
G1 X126.393 Y96.783 E77.83064
G1 X127.154 Y97.151 E77.91052
G1 X127.609 Y97.414 E77.96019
G1 X128.176 Y97.788 E78.02438
G1 X128.803 Y98.33 E78.1027
G1 X129.17 Y98.697 E78.15174
G1 X129.621 Y99.205 E78.21594
G1 X130.082 Y99.885 E78.29357
G1 X130.344 Y100.337 E78.34294
G1 X130.65 Y100.944 E78.40718
G1 X130.929 Y101.747 E78.48752
G1 X131.064 Y102.254 E78.5371
G1 X131.199 Y102.92 E78.60131
G1 X131.258 Y103.732 E78.67825
G1 X131.275 Y115.992 E79.83682
G1 X131.225 Y116.756 E79.90917
G1 X131.054 Y118.051 E80.03261
G1 X130.926 Y118.718 E80.09679
G1 X130.664 Y119.506 E80.17527
G1 X130.165 Y120.71 E80.29843
G1 X129.868 Y121.321 E80.36263
G1 X129.416 Y122.009 E80.44042
