;FLAVOR:UltiGCode
;TIME:1065
;MATERIAL:1893
;MATERIAL2:0
;NOZZLE_DIAMETER:0.4
;Generated with Cura_SteamEngine 3.2.1
M82 ;absolute extrusion mode

;LAYER_COUNT:48
;LAYER:0
M107
G0 F4500 X101.271 Y78.324 Z0.27
;TYPE:SKIRT
G1 F1800 X101.777 Y77.713 E0.07497
G1 X102.115 Y77.366 E0.12075
G1 X103.055 Y76.459 E0.24418
G1 X103.653 Y75.937 E0.3192
G1 X104.3 Y75.479 E0.39411
G1 X104.696 Y75.243 E0.43767
G1 X105.838 Y74.608 E0.56115
G1 X106.55 Y74.258 E0.63613
G1 X107.294 Y73.982 E0.71111
G1 X107.755 Y73.851 E0.7564
G1 X109.019 Y73.535 E0.87953
G1 X109.798 Y73.382 E0.95455
G1 X110.588 Y73.307 E1.02954
G1 X111.062 Y73.301 E1.07434
G1 X112.369 Y73.323 E1.19787
G1 X113.16 Y73.376 E1.27278
G1 X113.943 Y73.509 E1.34784
G1 X114.398 Y73.625 E1.39221
G1 X115.652 Y73.983 E1.51545
G1 X116.403 Y74.239 E1.59043
G1 X117.124 Y74.569 E1.66536
G1 X117.54 Y74.801 E1.71037
G1 X118.659 Y75.472 E1.83367
G1 X119.318 Y75.914 E1.90866
G1 X119.929 Y76.42 E1.98363
G1 X120.27 Y76.752 E2.0286
G1 X121.178 Y77.691 E2.15204
G1 X121.7 Y78.288 E2.22698
G1 X122.16 Y78.935 E2.302
G1 X122.4 Y79.338 E2.34632
G1 X123.035 Y80.48 E2.4698
G1 X123.385 Y81.192 E2.54478
G1 X123.661 Y81.936 E2.61977
G1 X123.793 Y82.401 E2.66545
G1 X124.108 Y83.664 E2.78846
G1 X124.261 Y84.443 E2.86348
G1 X124.335 Y85.233 E2.93846
G1 X124.34 Y85.754 E2.9877
G1 X123.103 Y138.662 E7.98887
G1 X123.044 Y139.453 E8.06383
G1 X122.894 Y140.289 E8.14409
G1 X122.67 Y141.237 E8.23614
G1 X122.449 Y141.999 E8.31112
G1 X122.152 Y142.735 E8.38612
G1 X121.934 Y143.171 E8.43219
G1 X121.467 Y144.035 E8.525
G1 X121.055 Y144.713 E8.59997
G1 X120.577 Y145.346 E8.67493
G1 X120.27 Y145.692 E8.71864
G1 X119.597 Y146.406 E8.81136
G1 X119.024 Y146.955 E8.88635
G1 X118.399 Y147.444 E8.96135
G1 X117.991 Y147.712 E9.00748
G1 X117.16 Y148.223 E9.09966
G1 X116.464 Y148.604 E9.17465
G1 X115.733 Y148.913 E9.24964
G1 X115.302 Y149.057 E9.29259
G1 X114.364 Y149.339 E9.38515
G1 X113.594 Y149.528 E9.46007
G1 X112.808 Y149.64 E9.5351
G1 X112.322 Y149.669 E9.58111
G1 X111.342 Y149.697 E9.67375
G1 X110.549 Y149.679 E9.74871
G1 X109.761 Y149.582 E9.82374
G1 X109.3 Y149.488 E9.8682
G1 X108.351 Y149.263 E9.96037
G1 X107.589 Y149.041 E10.03537
G1 X106.854 Y148.744 E10.11028
G1 X106.423 Y148.528 E10.15584
G1 X105.559 Y148.061 E10.24865
G1 X104.881 Y147.649 E10.32363
G1 X104.248 Y147.171 E10.39859
G1 X103.902 Y146.864 E10.4423
G1 X103.188 Y146.191 E10.53502
G1 X102.639 Y145.618 E10.61001
G1 X102.15 Y144.993 E10.685
G1 X101.884 Y144.589 E10.73071
G1 X101.373 Y143.759 E10.82282
G1 X100.992 Y143.063 E10.8978
G1 X100.682 Y142.332 E10.97284
G1 X100.535 Y141.888 E11.01704
G1 X100.254 Y140.949 E11.10966
G1 X100.065 Y140.178 E11.18468
G1 X99.954 Y139.392 E11.25969
G1 X99.925 Y138.883 E11.30787
G1 X98.662 Y87.033 E16.20915
G1 X98.661 Y86.737 E16.23712
G1 X98.68 Y85.3 E16.37293
G1 X98.73 Y84.508 E16.44792
G1 X98.86 Y83.725 E16.52293
G1 X98.982 Y83.239 E16.57028
G1 X99.34 Y81.987 E16.69333
G1 X99.597 Y81.236 E16.76834
G1 X99.927 Y80.515 E16.84328
G1 X100.158 Y80.102 E16.88799
G1 X100.829 Y78.983 E17.01129
G1 X101.271 Y78.324 E17.08628
G0 F4500 X101.562 Y78.519
G1 F1800 X102.059 Y77.924 E17.15954
G1 X102.358 Y77.618 E17.19997
G1 X103.298 Y76.711 E17.32341
G1 X103.883 Y76.202 E17.39669
G1 X104.518 Y75.756 E17.47002
G1 X104.866 Y75.549 E17.50828
G1 X106.008 Y74.914 E17.63177
G1 X106.704 Y74.573 E17.70501
G1 X107.432 Y74.305 E17.77832
G1 X107.84 Y74.191 E17.81835
G1 X109.104 Y73.875 E17.94147
G1 X109.865 Y73.726 E18.01475
G1 X110.638 Y73.656 E18.0881
G1 X111.056 Y73.651 E18.1276
G1 X112.363 Y73.673 E18.25113
G1 X113.136 Y73.726 E18.32435
G1 X113.901 Y73.858 E18.39771
G1 X114.302 Y73.961 E18.43684
G1 X115.556 Y74.319 E18.56008
G1 X116.29 Y74.57 E18.63338
G1 X116.994 Y74.895 E18.70666
G1 X117.36 Y75.101 E18.74635
G1 X118.479 Y75.772 E18.86965
G1 X119.123 Y76.205 E18.94298
G1 X119.718 Y76.702 E19.01624
G1 X120.019 Y76.995 E19.05594
G1 X120.927 Y77.934 E19.17938
G1 X121.436 Y78.519 E19.25266
G1 X121.883 Y79.153 E19.32596
G1 X122.094 Y79.508 E19.36499
G1 X122.729 Y80.65 E19.48847
G1 X123.07 Y81.346 E19.56171
G1 X123.338 Y82.074 E19.63502
G1 X123.453 Y82.486 E19.67544
G1 X123.768 Y83.749 E19.79845
G1 X123.917 Y84.51 E19.87173
G1 X123.987 Y85.283 E19.94508
G1 X123.99 Y85.746 E19.98883
G1 X122.753 Y138.654 E24.99001
G1 X122.695 Y139.427 E25.06326
G1 X122.553 Y140.208 E25.13828
G1 X122.329 Y141.156 E25.23033
G1 X122.112 Y141.901 E25.30366
G1 X121.82 Y142.619 E25.3769
G1 X121.626 Y143.004 E25.41764
G1 X121.159 Y143.868 E25.51046
G1 X120.755 Y144.531 E25.58383
G1 X120.286 Y145.148 E25.65706
G1 X120.015 Y145.451 E25.69548
G1 X119.342 Y146.165 E25.7882
G1 X118.781 Y146.702 E25.86159
G1 X118.169 Y147.177 E25.9348
G1 X117.808 Y147.414 E25.97561
G1 X116.977 Y147.925 E26.0678
G1 X116.296 Y148.297 E26.14113
G1 X115.581 Y148.596 E26.21436
G1 X115.202 Y148.721 E26.25208
G1 X114.264 Y149.003 E26.34464
G1 X113.51 Y149.188 E26.418
G1 X112.742 Y149.294 E26.49127
G1 X112.312 Y149.319 E26.53197
G1 X111.332 Y149.347 E26.62462
G1 X110.556 Y149.329 E26.69797
G1 X109.787 Y149.232 E26.77122
G1 X109.381 Y149.147 E26.81042
G1 X108.432 Y148.922 E26.90258
G1 X107.688 Y148.704 E26.97585
G1 X106.969 Y148.411 E27.04922
G1 X106.59 Y148.22 E27.08932
G1 X105.726 Y147.753 E27.18214
G1 X105.063 Y147.349 E27.2555
G1 X104.446 Y146.88 E27.32874
G1 X104.143 Y146.609 E27.36716
G1 X103.429 Y145.936 E27.45988
G1 X102.892 Y145.375 E27.53327
G1 X102.417 Y144.763 E27.60648
G1 X102.182 Y144.405 E27.64695
G1 X101.671 Y143.575 E27.73906
G1 X101.299 Y142.895 E27.8123
G1 X100.999 Y142.179 E27.88566
G1 X100.87 Y141.787 E27.92466
G1 X100.589 Y140.848 E28.01729
G1 X100.405 Y140.095 E28.09054
G1 X100.3 Y139.326 E28.16388
G1 X100.275 Y138.874 E28.20666
G1 X99.012 Y87.024 E33.10794
G1 X99.011 Y86.742 E33.13459
G1 X99.03 Y85.305 E33.2704
G1 X99.08 Y84.531 E33.34369
G1 X99.209 Y83.766 E33.41701
G1 X99.319 Y83.335 E33.45904
G1 X99.677 Y82.083 E33.5821
G1 X99.928 Y81.349 E33.6554
G1 X100.254 Y80.645 E33.72872
G1 X100.458 Y80.282 E33.76807
G1 X101.129 Y79.163 E33.89137
G1 X101.562 Y78.519 E33.9647
G0 F4500 X101.853 Y78.715
G1 F1800 X102.601 Y77.87 E34.07135
G1 X103.541 Y76.963 E34.19479
G1 X104.113 Y76.466 E34.26639
G1 X105.036 Y75.855 E34.371
G1 X106.178 Y75.22 E34.49448
G1 X106.859 Y74.888 E34.56607
G1 X107.925 Y74.53 E34.67234
G1 X109.189 Y74.214 E34.79546
G1 X109.932 Y74.07 E34.86698
G1 X111.05 Y74.001 E34.97283
G1 X112.357 Y74.023 E35.09636
G1 X113.112 Y74.076 E35.16789
G1 X114.206 Y74.298 E35.27338
G1 X115.46 Y74.656 E35.39661
G1 X116.176 Y74.902 E35.46816
G1 X117.18 Y75.402 E35.57415
G1 X118.299 Y76.073 E35.69745
G1 X118.927 Y76.496 E35.769
G1 X119.767 Y77.238 E35.87492
G1 X120.675 Y78.177 E35.99835
G1 X121.172 Y78.749 E36.06996
G1 X121.788 Y79.678 E36.1753
G1 X122.423 Y80.82 E36.29878
G1 X122.755 Y81.501 E36.37037
G1 X123.114 Y82.571 E36.47703
G1 X123.429 Y83.834 E36.60004
G1 X123.573 Y84.577 E36.67156
G1 X123.638 Y85.332 E36.74317
G1 X123.64 Y85.738 E36.78154
G1 X122.403 Y138.646 E41.78271
G1 X122.345 Y139.401 E41.85427
G1 X122.213 Y140.128 E41.92409
G1 X121.989 Y141.076 E42.01615
G1 X121.776 Y141.803 E42.08773
G1 X121.318 Y142.838 E42.19469
G1 X120.851 Y143.702 E42.2875
G1 X120.456 Y144.348 E42.35906
G1 X119.76 Y145.211 E42.46383
G1 X119.087 Y145.925 E42.55655
G1 X118.539 Y146.448 E42.62814
G1 X117.624 Y147.116 E42.73519
G1 X116.793 Y147.627 E42.82738
G1 X116.128 Y147.989 E42.89893
G1 X115.101 Y148.386 E43.00298
G1 X114.163 Y148.668 E43.09554
G1 X113.427 Y148.848 E43.16715
G1 X112.302 Y148.969 E43.27407
G1 X111.322 Y148.997 E43.36672
G1 X110.565 Y148.979 E43.43828
G1 X109.462 Y148.806 E43.54378
G1 X108.513 Y148.581 E43.63595
G1 X107.786 Y148.368 E43.70754
G1 X106.756 Y147.912 E43.81399
G1 X105.892 Y147.445 E43.9068
G1 X105.246 Y147.05 E43.97835
G1 X104.383 Y146.354 E44.08312
G1 X103.669 Y145.681 E44.17585
G1 X103.146 Y145.133 E44.24743
G1 X102.48 Y144.222 E44.35407
G1 X101.969 Y143.392 E44.44618
G1 X101.607 Y142.727 E44.51773
G1 X101.205 Y141.687 E44.6231
G1 X100.924 Y140.748 E44.71572
G1 X100.746 Y140.012 E44.78728
G1 X100.646 Y139.261 E44.85887
G1 X100.625 Y138.866 E44.89625
G1 X99.362 Y87.016 E49.79753
G1 X99.361 Y86.746 E49.82305
G1 X99.38 Y85.309 E49.95886
G1 X99.43 Y84.553 E50.03045
G1 X99.559 Y83.807 E50.102
G1 X99.655 Y83.431 E50.13867
G1 X100.013 Y82.179 E50.26173
G1 X100.26 Y81.463 E50.3333
G1 X100.759 Y80.462 E50.439
G1 X101.43 Y79.343 E50.5623
G1 X101.853 Y78.715 E50.63385
G0 F4500 X102.143 Y78.911
G1 F1800 X102.844 Y78.122 E50.73359
G1 X103.784 Y77.215 E50.85703
G1 X104.343 Y76.731 E50.9269
G1 X105.206 Y76.161 E51.02464
G1 X106.348 Y75.526 E51.14812
G1 X107.012 Y75.203 E51.2179
G1 X108.01 Y74.87 E51.31732
G1 X109.274 Y74.554 E51.44044
G1 X109.999 Y74.414 E51.51022
G1 X111.044 Y74.351 E51.60915
G1 X112.351 Y74.373 E51.73268
G1 X113.088 Y74.425 E51.8025
G1 X114.11 Y74.634 E51.90108
G1 X115.364 Y74.992 E52.02432
G1 X116.062 Y75.233 E52.0941
G1 X117 Y75.702 E52.1932
G1 X118.119 Y76.373 E52.3165
G1 X118.731 Y76.786 E52.38627
G1 X119.515 Y77.482 E52.48534
G1 X120.423 Y78.421 E52.60878
G1 X120.907 Y78.979 E52.67859
G1 X121.482 Y79.848 E52.77706
G1 X122.117 Y80.99 E52.90054
G1 X122.44 Y81.654 E52.97031
G1 X122.774 Y82.655 E53.07004
G1 X123.089 Y83.918 E53.19304
G1 X123.229 Y84.644 E53.26292
G1 X123.29 Y85.73 E53.3657
G1 X122.053 Y138.638 E58.36688
G1 X121.996 Y139.374 E58.43664
G1 X121.872 Y140.047 E58.50131
G1 X121.648 Y140.995 E58.59336
G1 X121.44 Y141.704 E58.66318
G1 X121.01 Y142.671 E58.76319
G1 X120.543 Y143.535 E58.856
G1 X120.157 Y144.165 E58.92582
G1 X119.505 Y144.971 E59.02379
G1 X118.832 Y145.685 E59.11651
G1 X118.298 Y146.195 E59.18629
G1 X117.441 Y146.818 E59.28642
G1 X116.61 Y147.329 E59.37861
G1 X115.961 Y147.681 E59.44838
G1 X115 Y148.051 E59.54569
G1 X114.062 Y148.333 E59.63825
G1 X113.344 Y148.507 E59.70807
G1 X112.292 Y148.619 E59.80804
G1 X111.312 Y148.647 E59.90069
G1 X110.574 Y148.628 E59.97045
G1 X109.542 Y148.466 E60.06917
G1 X108.593 Y148.241 E60.16134
G1 X107.885 Y148.032 E60.2311
G1 X106.923 Y147.604 E60.3306
G1 X106.059 Y147.137 E60.42341
G1 X105.429 Y146.751 E60.49323
G1 X104.623 Y146.099 E60.5912
G1 X103.909 Y145.426 E60.68392
G1 X103.399 Y144.892 E60.7537
G1 X102.778 Y144.038 E60.85349
G1 X102.267 Y143.208 E60.94559
G1 X101.915 Y142.559 E61.01537
G1 X101.54 Y141.587 E61.11382
G1 X101.259 Y140.648 E61.20644
G1 X101.086 Y139.93 E61.27623
G1 X100.975 Y138.857 E61.37817
G1 X99.712 Y87.007 E66.27945
G1 X99.711 Y86.751 E66.30364
G1 X99.73 Y85.314 E66.43945
G1 X99.779 Y84.577 E66.50925
G1 X99.992 Y83.528 E66.61041
G1 X100.35 Y82.276 E66.73346
G1 X100.591 Y81.577 E66.80333
G1 X101.059 Y80.642 E66.90214
G1 X101.73 Y79.523 E67.02544
G1 X102.143 Y78.911 E67.09521
G0 F4500 X102.434 Y79.108
G1 F1800 X103.087 Y78.373 E67.18812
G1 X104.027 Y77.466 E67.31156
G1 X104.572 Y76.996 E67.37957
G1 X105.376 Y76.467 E67.47052
G1 X106.518 Y75.832 E67.594
G1 X107.166 Y75.518 E67.66205
G1 X108.095 Y75.209 E67.75457
G1 X109.359 Y74.893 E67.87769
G1 X110.065 Y74.758 E67.94562
G1 X111.038 Y74.701 E68.03772
G1 X112.345 Y74.723 E68.16125
G1 X113.063 Y74.775 E68.22928
G1 X114.014 Y74.971 E68.32104
G1 X115.268 Y75.329 E68.44428
G1 X115.947 Y75.564 E68.51218
G1 X116.82 Y76.002 E68.60448
G1 X117.939 Y76.673 E68.72778
G1 X118.534 Y77.077 E68.79574
G1 X119.264 Y77.725 E68.88798
G1 X120.172 Y78.664 E69.01142
G1 X120.642 Y79.208 E69.07936
G1 X121.176 Y80.018 E69.17104
G1 X121.811 Y81.16 E69.29452
G1 X122.125 Y81.808 E69.36257
G1 X122.435 Y82.74 E69.45538
G1 X122.75 Y84.003 E69.57839
G1 X122.885 Y84.71 E69.64641
G1 X122.94 Y85.721 E69.74209
G1 X121.703 Y138.629 E74.74327
G1 X121.646 Y139.347 E74.81133
G1 X121.531 Y139.967 E74.87092
G1 X121.307 Y140.915 E74.96297
G1 X121.103 Y141.605 E75.03097
G1 X120.702 Y142.505 E75.12408
G1 X120.235 Y143.369 E75.21689
G1 X119.858 Y143.982 E75.2849
G1 X119.251 Y144.731 E75.376
G1 X118.578 Y145.445 E75.46872
G1 X118.056 Y145.941 E75.53677
G1 X117.258 Y146.52 E75.62994
G1 X116.427 Y147.031 E75.72213
G1 X115.794 Y147.373 E75.79012
G1 X114.899 Y147.716 E75.8807
G1 X113.961 Y147.998 E75.97326
G1 X113.262 Y148.166 E76.04119
G1 X112.282 Y148.269 E76.13431
G1 X111.302 Y148.297 E76.22696
G1 X110.583 Y148.278 E76.29493
G1 X109.623 Y148.125 E76.38679
G1 X108.674 Y147.9 E76.47896
G1 X107.985 Y147.696 E76.54687
G1 X107.089 Y147.296 E76.63959
G1 X106.225 Y146.829 E76.7324
G1 X105.612 Y146.452 E76.80041
G1 X104.863 Y145.845 E76.89152
G1 X104.149 Y145.172 E76.98424
G1 X103.653 Y144.65 E77.05228
G1 X103.076 Y143.855 E77.14511
G1 X102.565 Y143.025 E77.23722
G1 X102.223 Y142.392 E77.30521
G1 X101.876 Y141.486 E77.39689
G1 X101.595 Y140.547 E77.48952
G1 X101.427 Y139.848 E77.55745
G1 X101.325 Y138.849 E77.65235
G1 X100.062 Y86.999 E82.55363
G1 X100.061 Y86.755 E82.57669
G1 X100.08 Y85.318 E82.7125
G1 X100.129 Y84.601 E82.78041
G1 X100.329 Y83.624 E82.87465
G1 X100.687 Y82.372 E82.99771
G1 X100.922 Y81.692 E83.0657
G1 X101.359 Y80.822 E83.1577
G1 X102.03 Y79.703 E83.281
G1 X102.434 Y79.108 E83.34896
G0 F4500 X102.724 Y79.305
G1 F1800 X103.33 Y78.625 E83.43504
G1 X104.27 Y77.718 E83.55848
G1 X104.8 Y77.262 E83.62455
G1 X105.546 Y76.773 E83.70884
G1 X106.688 Y76.138 E83.83232
G1 X107.318 Y75.833 E83.89847
G1 X108.179 Y75.549 E83.98414
G1 X109.443 Y75.233 E84.10727
G1 X110.131 Y75.102 E84.17345
G1 X111.032 Y75.051 E84.25873
G1 X112.339 Y75.073 E84.38226
G1 X113.037 Y75.125 E84.44841
G1 X113.917 Y75.307 E84.53333
G1 X115.171 Y75.665 E84.65656
G1 X115.832 Y75.896 E84.72273
G1 X116.64 Y76.302 E84.80819
G1 X117.759 Y76.973 E84.93149
G1 X118.337 Y77.367 E84.99759
G1 X119.012 Y77.968 E85.083
G1 X119.92 Y78.907 E85.20643
G1 X120.377 Y79.437 E85.27257
G1 X120.87 Y80.188 E85.35746
G1 X121.505 Y81.33 E85.48094
G1 X121.81 Y81.96 E85.54709
G1 X122.095 Y82.825 E85.63315
G1 X122.41 Y84.088 E85.75616
G1 X122.54 Y84.775 E85.82224
G1 X122.59 Y85.713 E85.911
G1 X121.353 Y138.621 E90.91218
G1 X121.297 Y139.319 E90.97835
G1 X121.191 Y139.886 E91.03286
G1 X120.967 Y140.834 E91.12491
G1 X120.767 Y141.505 E91.19108
G1 X120.394 Y142.338 E91.27733
G1 X119.927 Y143.202 E91.37014
G1 X119.56 Y143.798 E91.43628
G1 X118.996 Y144.491 E91.52072
G1 X118.323 Y145.205 E91.61344
G1 X117.815 Y145.686 E91.67955
G1 X117.074 Y146.221 E91.76592
G1 X116.243 Y146.732 E91.85811
G1 X115.627 Y147.064 E91.92424
G1 X114.798 Y147.381 E92.00811
G1 X113.86 Y147.663 E92.10067
G1 X113.18 Y147.826 E92.16675
G1 X112.272 Y147.92 E92.25301
G1 X111.292 Y147.948 E92.34566
G1 X110.593 Y147.928 E92.41174
G1 X109.704 Y147.785 E92.49684
G1 X108.755 Y147.56 E92.589
G1 X108.084 Y147.36 E92.65517
G1 X107.256 Y146.988 E92.74095
G1 X106.392 Y146.521 E92.83376
G1 X105.796 Y146.154 E92.8999
G1 X105.103 Y145.59 E92.98434
G1 X104.389 Y144.917 E93.07706
G1 X103.908 Y144.409 E93.14317
G1 X103.374 Y143.671 E93.22926
G1 X102.863 Y142.841 E93.32136
G1 X102.531 Y142.225 E93.38749
G1 X102.211 Y141.386 E93.47235
G1 X101.93 Y140.447 E93.56497
G1 X101.768 Y139.766 E93.63112
G1 X101.675 Y138.84 E93.71907
G1 X100.412 Y86.99 E98.62035
G1 X100.411 Y86.76 E98.64208
G1 X100.43 Y85.323 E98.77789
G1 X100.479 Y84.625 E98.84402
G1 X100.665 Y83.72 E98.93133
G1 X101.023 Y82.468 E99.05438
G1 X101.254 Y81.807 E99.12055
G1 X101.659 Y81.002 E99.20571
G1 X102.33 Y79.883 E99.32901
G1 X102.724 Y79.305 E99.39511
G0 F4500 X103.013 Y79.502
G1 F1800 X103.573 Y78.877 E99.47441
G1 X104.513 Y77.97 E99.59785
G1 X105.029 Y77.528 E99.66206
G1 X105.717 Y77.079 E99.7397
G1 X106.859 Y76.444 E99.86318
G1 X107.471 Y76.149 E99.92738
G1 X108.264 Y75.888 E100.00627
G1 X109.528 Y75.572 E100.1294
G1 X110.196 Y75.447 E100.19362
G1 X111.026 Y75.401 E100.27217
G1 X112.333 Y75.423 E100.3957
G1 X113.011 Y75.474 E100.45995
G1 X113.821 Y75.644 E100.53817
G1 X115.075 Y76.002 E100.6614
G1 X115.717 Y76.226 E100.72566
G1 X116.46 Y76.602 E100.80435
G1 X117.579 Y77.273 E100.92765
G1 X118.14 Y77.656 E100.99184
G1 X118.76 Y78.212 E101.07054
G1 X119.668 Y79.151 E101.19398
G1 X120.111 Y79.666 E101.25817
G1 X120.564 Y80.359 E101.33641
G1 X121.199 Y81.501 E101.45989
G1 X121.494 Y82.113 E101.5241
G1 X121.755 Y82.909 E101.60326
G1 X122.07 Y84.172 E101.72627
G1 X122.196 Y84.84 E101.79051
