;FLAVOR:UltiGCode
;TIME:3645
;MATERIAL:6579
;MATERIAL2:0
;NOZZLE_DIAMETER:0.4
;Generated with Cura_SteamEngine 3.2.1
M82 ;absolute extrusion mode

;LAYER_COUNT:89
;LAYER:0
M107
G0 F4500 X86.931 Y86.798 Z0.27
;TYPE:SKIRT
G1 F1800 X87.699 Y86.113 E0.09725
G1 X88.263 Y85.673 E0.16485
G1 X88.912 Y85.217 E0.2398
G1 X89.604 Y84.829 E0.31478
G1 X90.188 Y84.568 E0.37522
G1 X90.897 Y84.285 E0.44737
G1 X91.647 Y84.028 E0.52229
G1 X92.42 Y83.849 E0.59727
G1 X92.836 Y83.785 E0.63704
G1 X93.625 Y83.686 E0.71219
G1 X94.605 Y83.625 E0.80498
G1 X130.945 Y83.625 E4.23911
G1 X131.737 Y83.665 E4.31405
G1 X132.522 Y83.784 E4.38908
G1 X133.29 Y83.982 E4.46403
G1 X134.035 Y84.257 E4.53907
G1 X134.748 Y84.604 E4.61401
G1 X135.423 Y85.022 E4.68903
G1 X136.052 Y85.505 E4.76398
G1 X136.629 Y86.05 E4.83898
G1 X137.149 Y86.649 E4.91394
G1 X137.605 Y87.298 E4.9889
G1 X137.994 Y87.99 E5.06391
G1 X138.312 Y88.717 E5.1389
G1 X138.555 Y89.473 E5.21394
G1 X138.72 Y90.249 E5.28891
G1 X138.806 Y91.037 E5.36382
G1 X138.82 Y91.5 E5.4076
G1 X138.82 Y131.5 E9.1876
G1 X138.78 Y132.292 E9.26253
G1 X138.661 Y133.077 E9.33756
G1 X138.463 Y133.845 E9.41251
G1 X138.188 Y134.59 E9.48756
G1 X137.841 Y135.303 E9.56249
G1 X137.423 Y135.978 E9.63752
G1 X136.94 Y136.607 E9.71246
G1 X136.395 Y137.184 E9.78747
G1 X135.796 Y137.704 E9.86243
G1 X135.147 Y138.16 E9.93738
G1 X134.455 Y138.549 E10.0124
G1 X133.728 Y138.867 E10.08739
G1 X132.972 Y139.11 E10.16243
G1 X132.196 Y139.275 E10.2374
G1 X131.408 Y139.361 E10.31231
G1 X130.94 Y139.375 E10.35656
G1 X94.202 Y139.35 E13.8283
G1 X93.409 Y139.309 E13.90334
G1 X92.273 Y139.109 E14.01234
G1 X91.515 Y138.917 E14.08623
G1 X90.757 Y138.684 E14.16117
G1 X90.026 Y138.375 E14.23617
G1 X89.552 Y138.126 E14.28677
G1 X88.911 Y137.761 E14.35647
G1 X88.242 Y137.334 E14.43147
G1 X87.62 Y136.842 E14.50642
G1 X87.036 Y136.276 E14.58327
G1 X86.557 Y135.76 E14.64981
G1 X86.048 Y135.152 E14.72474
G1 X85.602 Y134.495 E14.79978
G1 X85.224 Y133.798 E14.87471
G1 X85.045 Y133.394 E14.91647
G1 X84.801 Y132.8 E14.97715
G1 X84.536 Y132.052 E15.05214
G1 X84.349 Y131.281 E15.12711
G1 X84.24 Y130.495 E15.2021
G1 X84.21 Y129.815 E15.26642
G1 X84.18 Y93.508 E18.69744
G1 X84.219 Y92.715 E18.77246
G1 X84.339 Y91.928 E18.8477
G1 X84.466 Y91.305 E18.90778
G1 X84.663 Y90.537 E18.98271
G1 X84.937 Y89.792 E19.05772
G1 X85.284 Y89.078 E19.13274
G1 X85.577 Y88.59 E19.18653
G1 X85.938 Y88.034 E19.24917
G1 X86.403 Y87.391 E19.32416
G1 X86.931 Y86.798 E19.39919
G0 F4500 X87.205 Y87.019
G1 F1800 X87.914 Y86.389 E19.48882
G1 X88.478 Y85.949 E19.55642
G1 X89.114 Y85.504 E19.62977
G1 X89.791 Y85.127 E19.703
G1 X90.317 Y84.893 E19.75741
G1 X91.026 Y84.61 E19.82955
G1 X91.761 Y84.36 E19.90291
G1 X92.879 Y84.133 E20.01072
G1 X93.668 Y84.034 E20.08586
G1 X94.605 Y83.975 E20.17459
G1 X130.945 Y83.975 E23.60872
G1 X131.72 Y84.015 E23.68205
G1 X132.486 Y84.134 E23.75531
G1 X133.236 Y84.332 E23.82861
G1 X133.962 Y84.606 E23.90194
G1 X134.655 Y84.953 E23.97518
G1 X135.309 Y85.37 E24.04848
G1 X135.917 Y85.852 E24.1218
G1 X136.472 Y86.394 E24.19511
G1 X136.969 Y86.99 E24.26844
G1 X137.401 Y87.634 E24.34172
G1 X137.764 Y88.319 E24.41498
G1 X138.056 Y89.038 E24.48832
G1 X138.271 Y89.783 E24.56159
G1 X138.409 Y90.546 E24.63487
G1 X138.47 Y91.5 E24.7252
G1 X138.47 Y131.5 E28.5052
G1 X138.43 Y132.275 E28.57854
G1 X138.311 Y133.041 E28.65179
G1 X138.113 Y133.791 E28.7251
G1 X137.839 Y134.517 E28.79843
G1 X137.492 Y135.21 E28.87167
G1 X137.075 Y135.864 E28.94496
G1 X136.593 Y136.472 E29.01829
G1 X136.051 Y137.027 E29.09159
G1 X135.455 Y137.524 E29.16493
G1 X134.811 Y137.956 E29.23821
G1 X134.126 Y138.319 E29.31147
G1 X133.407 Y138.611 E29.38481
G1 X132.662 Y138.826 E29.45808
G1 X131.899 Y138.964 E29.53135
G1 X130.94 Y139.025 E29.62216
G1 X94.202 Y139 E33.09391
G1 X93.427 Y138.959 E33.16725
G1 X92.359 Y138.77 E33.26974
G1 X91.601 Y138.578 E33.34363
G1 X90.86 Y138.349 E33.41692
G1 X90.147 Y138.045 E33.49017
G1 X89.725 Y137.822 E33.53528
G1 X89.084 Y137.457 E33.60498
G1 X88.431 Y137.039 E33.67825
G1 X87.824 Y136.556 E33.75156
G1 X87.293 Y136.038 E33.82166
G1 X86.814 Y135.522 E33.88819
G1 X86.316 Y134.927 E33.96151
G1 X85.882 Y134.284 E34.03482
G1 X85.368 Y133.261 E34.14301
G1 X85.124 Y132.667 E34.2037
G1 X84.867 Y131.936 E34.27692
G1 X84.686 Y131.181 E34.35029
G1 X84.584 Y130.412 E34.4236
G1 X84.56 Y129.814 E34.48016
G1 X84.53 Y93.507 E37.91117
G1 X84.569 Y92.733 E37.9844
G1 X84.682 Y91.998 E38.05468
G1 X84.809 Y91.375 E38.11476
G1 X85.003 Y90.624 E38.18806
G1 X85.273 Y89.897 E38.26135
G1 X85.616 Y89.201 E38.33467
G1 X85.871 Y88.78 E38.38119
G1 X86.232 Y88.224 E38.44383
G1 X86.687 Y87.596 E38.51712
G1 X87.205 Y87.019 E38.59039
G0 F4500 X87.478 Y87.24
G1 F1800 X88.13 Y86.665 E38.67254
G1 X88.694 Y86.225 E38.74014
G1 X89.315 Y85.791 E38.81174
G1 X89.978 Y85.425 E38.8833
G1 X90.447 Y85.218 E38.93175
G1 X91.156 Y84.935 E39.00389
G1 X91.873 Y84.692 E39.07543
G1 X92.923 Y84.48 E39.17666
G1 X93.712 Y84.381 E39.25181
G1 X94.605 Y84.325 E39.33636
G1 X130.945 Y84.325 E42.77049
G1 X131.701 Y84.365 E42.84203
G1 X132.449 Y84.484 E42.91361
G1 X133.18 Y84.682 E42.98518
G1 X133.887 Y84.956 E43.05683
G1 X134.56 Y85.302 E43.12834
G1 X135.193 Y85.718 E43.19992
G1 X135.779 Y86.198 E43.2715
G1 X136.311 Y86.737 E43.34307
G1 X136.783 Y87.329 E43.41462
G1 X137.19 Y87.968 E43.48621
G1 X137.528 Y88.646 E43.5578
G1 X137.792 Y89.355 E43.6293
G1 X137.98 Y90.089 E43.7009
G1 X138.089 Y90.838 E43.77243
G1 X138.12 Y91.5 E43.83505
G1 X138.12 Y131.5 E47.61505
G1 X138.08 Y132.256 E47.6866
G1 X137.961 Y133.004 E47.75817
G1 X137.763 Y133.735 E47.82974
G1 X137.489 Y134.442 E47.90139
G1 X137.143 Y135.115 E47.97291
G1 X136.727 Y135.748 E48.04449
G1 X136.247 Y136.334 E48.11607
G1 X135.708 Y136.866 E48.18764
G1 X135.116 Y137.338 E48.25918
G1 X134.477 Y137.745 E48.33078
G1 X133.799 Y138.083 E48.40237
G1 X133.09 Y138.347 E48.47386
G1 X132.356 Y138.535 E48.54547
G1 X131.607 Y138.644 E48.61699
G1 X130.94 Y138.675 E48.68009
G1 X94.202 Y138.65 E52.15183
G1 X93.446 Y138.61 E52.22338
G1 X92.445 Y138.43 E52.31949
G1 X91.687 Y138.238 E52.39338
G1 X90.964 Y138.014 E52.46491
G1 X90.268 Y137.714 E52.53653
G1 X89.899 Y137.518 E52.57601
G1 X89.258 Y137.153 E52.64572
G1 X88.62 Y136.744 E52.71734
G1 X88.029 Y136.27 E52.78893
G1 X87.549 Y135.799 E52.85248
G1 X87.07 Y135.283 E52.91901
G1 X86.585 Y134.702 E52.99053
G1 X86.164 Y134.073 E53.06206
G1 X85.692 Y133.128 E53.16188
G1 X85.448 Y132.534 E53.22257
G1 X85.198 Y131.819 E53.29415
G1 X85.024 Y131.082 E53.36571
G1 X84.929 Y130.331 E53.43724
G1 X84.91 Y129.814 E53.48613
G1 X84.88 Y93.507 E56.91714
G1 X84.919 Y92.751 E56.98868
G1 X85.025 Y92.068 E57.054
G1 X85.152 Y91.445 E57.11408
G1 X85.342 Y90.712 E57.18564
G1 X85.608 Y90.003 E57.2572
G1 X85.948 Y89.326 E57.32879
G1 X86.164 Y88.971 E57.36806
G1 X86.525 Y88.415 E57.43071
G1 X86.971 Y87.802 E57.50234
G1 X87.478 Y87.24 E57.57387
G0 F4500 X87.751 Y87.462
G1 F1800 X88.345 Y86.941 E57.64854
G1 X88.909 Y86.501 E57.71614
G1 X89.515 Y86.079 E57.78592
G1 X90.163 Y85.724 E57.85574
G1 X90.577 Y85.543 E57.89844
G1 X91.286 Y85.26 E57.97058
G1 X91.986 Y85.024 E58.04039
G1 X92.966 Y84.827 E58.13485
G1 X93.755 Y84.728 E58.21
G1 X94.605 Y84.675 E58.29048
G1 X130.945 Y84.675 E61.72461
G1 X131.683 Y84.715 E61.79445
G1 X132.411 Y84.834 E61.86416
G1 X133.123 Y85.032 E61.934
G1 X133.809 Y85.305 E62.00377
G1 X134.462 Y85.651 E62.07361
G1 X135.074 Y86.065 E62.14343
G1 X135.637 Y86.543 E62.21322
G1 X136.145 Y87.079 E62.28301
G1 X136.592 Y87.667 E62.35281
G1 X136.973 Y88.3 E62.42263
G1 X137.284 Y88.97 E62.49243
G1 X137.52 Y89.67 E62.56224
G1 X137.679 Y90.391 E62.63201
G1 X137.76 Y91.126 E62.70189
G1 X137.77 Y91.5 E62.73724
G1 X137.77 Y131.5 E66.51724
G1 X137.73 Y132.238 E66.58709
G1 X137.611 Y132.966 E66.6568
G1 X137.413 Y133.678 E66.72663
G1 X137.14 Y134.364 E66.79641
G1 X136.794 Y135.017 E66.86624
G1 X136.38 Y135.629 E66.93607
G1 X135.902 Y136.192 E67.00586
G1 X135.366 Y136.7 E67.07565
G1 X134.778 Y137.147 E67.14544
G1 X134.145 Y137.528 E67.21526
G1 X133.475 Y137.839 E67.28507
G1 X132.775 Y138.075 E67.35487
G1 X132.054 Y138.234 E67.42465
G1 X131.319 Y138.315 E67.49452
G1 X130.94 Y138.325 E67.53035
G1 X94.202 Y138.3 E71.00209
G1 X93.465 Y138.26 E71.07184
G1 X92.531 Y138.091 E71.16154
G1 X91.773 Y137.899 E71.23543
G1 X91.068 Y137.679 E71.30522
G1 X90.072 Y137.214 E71.4091
G1 X89.431 Y136.849 E71.4788
G1 X88.81 Y136.449 E71.54861
G1 X88.235 Y135.985 E71.61843
G1 X87.806 Y135.561 E71.67543
G1 X87.327 Y135.045 E71.74196
G1 X86.854 Y134.478 E71.81174
G1 X86.446 Y133.862 E71.88157
G1 X86.016 Y132.995 E71.97302
G1 X85.772 Y132.401 E72.0337
G1 X85.529 Y131.704 E72.10346
G1 X85.362 Y130.984 E72.17331
G1 X85.274 Y130.251 E72.24307
G1 X85.26 Y129.814 E72.28439
G1 X85.23 Y93.507 E75.7154
G1 X85.269 Y92.769 E75.78524
G1 X85.368 Y92.138 E75.8456
G1 X85.495 Y91.515 E75.90568
G1 X85.681 Y90.8 E75.9755
G1 X85.944 Y90.11 E76.04528
G1 X86.458 Y89.161 E76.14727
G1 X86.819 Y88.605 E76.20992
G1 X87.254 Y88.009 E76.27964
G1 X87.751 Y87.462 E76.34949
G0 F4500 X88.023 Y87.685
G1 F1800 X88.56 Y87.217 E76.4168
G1 X89.124 Y86.777 E76.4844
G1 X89.715 Y86.366 E76.55242
G1 X90.348 Y86.024 E76.62042
G1 X90.707 Y85.868 E76.65741
G1 X91.416 Y85.585 E76.72955
G1 X92.098 Y85.356 E76.79753
G1 X93.01 Y85.174 E76.88542
G1 X93.799 Y85.075 E76.96056
G1 X94.605 Y85.025 E77.03687
G1 X130.945 Y85.025 E80.471
G1 X131.663 Y85.065 E80.53896
G1 X132.373 Y85.184 E80.60699
G1 X133.065 Y85.382 E80.67501
G1 X133.73 Y85.655 E80.74294
G1 X134.362 Y86 E80.81098
G1 X134.951 Y86.413 E80.87896
G1 X135.49 Y86.889 E80.94692
G1 X135.974 Y87.421 E81.01489
G1 X136.395 Y88.004 E81.08284
G1 X136.749 Y88.631 E81.15088
G1 X137.032 Y89.292 E81.21883
G1 X137.239 Y89.981 E81.28682
G1 X137.369 Y90.689 E81.35484
G1 X137.42 Y91.5 E81.43163
G1 X137.42 Y131.5 E85.21163
G1 X137.38 Y132.218 E85.27959
G1 X137.261 Y132.928 E85.34762
G1 X137.063 Y133.62 E85.41564
G1 X136.79 Y134.285 E85.48357
G1 X136.445 Y134.917 E85.55161
G1 X136.032 Y135.506 E85.6196
G1 X135.556 Y136.045 E85.68755
G1 X135.024 Y136.529 E85.75552
G1 X134.441 Y136.95 E85.82347
G1 X133.814 Y137.304 E85.89152
G1 X133.153 Y137.587 E85.95946
G1 X132.464 Y137.794 E86.02745
G1 X131.756 Y137.924 E86.09547
G1 X130.941 Y137.975 E86.17264
G1 X94.203 Y137.95 E89.64438
G1 X93.484 Y137.91 E89.71243
G1 X92.617 Y137.752 E89.79572
G1 X91.859 Y137.56 E89.86961
G1 X91.173 Y137.345 E89.93755
G1 X90.245 Y136.91 E90.0344
G1 X89.604 Y136.545 E90.1041
G1 X89 Y136.155 E90.17205
G1 X88.442 Y135.7 E90.24009
G1 X88.063 Y135.323 E90.2906
G1 X87.584 Y134.807 E90.35714
G1 X87.124 Y134.254 E90.42511
G1 X86.729 Y133.652 E90.49315
G1 X86.34 Y132.862 E90.57637
G1 X86.096 Y132.268 E90.63705
G1 X85.86 Y131.589 E90.70498
G1 X85.701 Y130.887 E90.773
G1 X85.61 Y129.813 E90.87486
G1 X85.58 Y93.506 E94.30587
G1 X85.619 Y92.788 E94.37382
G1 X85.71 Y92.208 E94.4293
G1 X85.837 Y91.585 E94.48939
G1 X86.02 Y90.889 E94.5574
G1 X86.279 Y90.217 E94.62545
G1 X86.751 Y89.352 E94.71857
G1 X87.112 Y88.796 E94.78122
G1 X87.537 Y88.215 E94.84924
G1 X88.023 Y87.685 E94.9172
G0 F4500 X88.295 Y87.909
G1 F1800 X88.776 Y87.493 E94.9773
G1 X89.34 Y87.053 E95.04489
G1 X89.915 Y86.655 E95.11098
G1 X90.836 Y86.193 E95.20835
G1 X91.545 Y85.91 E95.28049
G1 X92.209 Y85.689 E95.34662
G1 X93.053 Y85.522 E95.42793
G1 X93.842 Y85.423 E95.50307
G1 X94.605 Y85.375 E95.57532
G1 X130.945 Y85.375 E99.00945
G1 X131.644 Y85.415 E99.07561
G1 X132.333 Y85.534 E99.14169
G1 X133.004 Y85.732 E99.2078
G1 X133.649 Y86.004 E99.27395
G1 X134.258 Y86.348 E99.34005
G1 X134.824 Y86.76 E99.4062
G1 X135.339 Y87.233 E99.47228
G1 X135.797 Y87.762 E99.53841
G1 X136.192 Y88.34 E99.60456
G1 X136.518 Y88.959 E99.67067
G1 X136.772 Y89.611 E99.7368
G1 X136.949 Y90.288 E99.80293
G1 X137.048 Y90.981 E99.86908
G1 X137.07 Y91.5 E99.91817
G1 X137.07 Y131.5 E103.69817
G1 X137.03 Y132.199 E103.76433
G1 X136.911 Y132.888 E103.83041
G1 X136.713 Y133.559 E103.89652
G1 X136.441 Y134.204 E103.96267
G1 X136.097 Y134.813 E104.02877
G1 X135.685 Y135.379 E104.09492
G1 X135.212 Y135.894 E104.161
G1 X134.683 Y136.352 E104.22713
G1 X134.105 Y136.747 E104.29328
G1 X133.486 Y137.073 E104.3594
G1 X132.834 Y137.327 E104.42552
G1 X132.157 Y137.504 E104.49165
G1 X131.464 Y137.603 E104.5578
G1 X130.941 Y137.625 E104.60727
G1 X94.203 Y137.6 E108.07901
G1 X93.504 Y137.56 E108.14517
G1 X92.703 Y137.412 E108.22215
G1 X91.945 Y137.22 E108.29604
G1 X91.278 Y137.01 E108.36212
G1 X90.418 Y136.606 E108.45191
G1 X89.777 Y136.241 E108.52162
G1 X89.19 Y135.86 E108.58775
G1 X88.65 Y135.415 E108.65388
G1 X88.319 Y135.085 E108.69805
G1 X87.84 Y134.569 E108.76458
G1 X87.394 Y134.03 E108.83069
G1 X87.012 Y133.443 E108.89688
G1 X86.663 Y132.729 E108.97198
G1 X86.419 Y132.135 E109.03266
G1 X86.191 Y131.474 E109.09874
G1 X86.039 Y130.791 E109.16486
G1 X85.96 Y129.813 E109.25758
G1 X85.93 Y93.506 E112.68859
G1 X85.969 Y92.807 E112.75475
G1 X86.053 Y92.278 E112.80537
G1 X86.18 Y91.655 E112.86545
G1 X86.359 Y90.978 E112.93163
G1 X86.614 Y90.326 E112.99779
G1 X87.045 Y89.543 E113.08225
G1 X87.406 Y88.987 E113.1449
G1 X87.82 Y88.422 E113.21109
G1 X88.295 Y87.909 E113.27716
G0 F4500 X88.567 Y88.134
G1 F1800 X88.991 Y87.769 E113.33003
G1 X89.555 Y87.329 E113.39762
G1 X90.114 Y86.943 E113.46182
G1 X90.966 Y86.518 E113.5518
G1 X91.675 Y86.235 E113.62394
G1 X92.32 Y86.021 E113.68816
G1 X93.097 Y85.869 E113.76297
G1 X93.886 Y85.77 E113.83812
G1 X94.605 Y85.725 E113.9062
G1 X130.945 Y85.725 E117.34033
G1 X131.623 Y85.765 E117.40451
G1 X132.292 Y85.884 E117.46872
G1 X132.942 Y86.081 E117.53291
G1 X133.565 Y86.353 E117.59715
G1 X134.151 Y86.697 E117.66136
G1 X134.693 Y87.107 E117.72558
G1 X135.183 Y87.577 E117.78975
G1 X135.614 Y88.102 E117.85394
G1 X135.981 Y88.674 E117.91816
G1 X136.278 Y89.285 E117.98236
G1 X136.502 Y89.927 E118.04661
G1 X136.648 Y90.59 E118.11077
G1 X136.72 Y91.5 E118.19703
G1 X136.72 Y131.5 E121.97703
G1 X136.68 Y132.178 E122.04122
G1 X136.561 Y132.847 E122.10543
G1 X136.364 Y133.497 E122.16961
G1 X136.092 Y134.12 E122.23385
G1 X135.748 Y134.706 E122.29807
G1 X135.338 Y135.248 E122.36229
G1 X134.868 Y135.738 E122.42645
G1 X134.343 Y136.169 E122.49064
G1 X133.771 Y136.536 E122.55486
G1 X133.16 Y136.833 E122.61906
G1 X132.518 Y137.057 E122.68332
G1 X131.855 Y137.203 E122.74747
G1 X130.941 Y137.275 E122.83411
G1 X94.203 Y137.25 E126.30586
G1 X93.525 Y137.21 E126.37004
G1 X92.789 Y137.073 E126.44079
G1 X92.031 Y136.881 E126.51468
G1 X91.383 Y136.676 E126.57891
G1 X90.591 Y136.301 E126.66172
G1 X89.95 Y135.936 E126.73142
G1 X89.381 Y135.566 E126.79556
G1 X88.859 Y135.131 E126.85977
G1 X88.576 Y134.847 E126.89766
G1 X88.097 Y134.331 E126.96419
G1 X87.664 Y133.807 E127.02843
G1 X87.297 Y133.235 E127.09265
G1 X86.987 Y132.596 E127.15977
G1 X86.743 Y132.002 E127.22046
G1 X86.522 Y131.36 E127.28462
G1 X86.379 Y130.696 E127.34881
G1 X86.31 Y129.813 E127.4325
G1 X86.28 Y93.506 E130.86352
G1 X86.319 Y92.828 E130.92769
G1 X86.396 Y92.347 E130.97373
G1 X86.523 Y91.724 E131.03381
G1 X86.698 Y91.068 E131.09797
G1 X86.949 Y90.436 E131.16223
G1 X87.338 Y89.733 E131.23816
G1 X87.699 Y89.177 E131.3008
G1 X88.102 Y88.63 E131.36501
G1 X88.567 Y88.134 E131.42926
G0 F4500 X88.837 Y88.36
G1 F1800 X89.206 Y88.045 E131.47511
G1 X89.77 Y87.605 E131.5427
G1 X90.313 Y87.232 E131.60496
G1 X91.096 Y86.844 E131.68754
G1 X91.805 Y86.561 E131.75968
G1 X92.43 Y86.354 E131.8219
G1 X93.141 Y86.216 E131.89034
G1 X93.93 Y86.117 E131.96549
G1 X94.605 Y86.075 E132.0294
G1 X130.945 Y86.075 E135.46353
G1 X131.602 Y86.115 E135.52573
G1 X132.25 Y86.234 E135.58799
G1 X132.878 Y86.431 E135.65018
G1 X133.478 Y86.703 E135.71244
G1 X134.041 Y87.045 E135.77469
G1 X134.558 Y87.453 E135.83693
G1 X135.021 Y87.92 E135.89907
G1 X135.425 Y88.441 E135.96137
G1 X135.763 Y89.006 E136.02359
G1 X136.029 Y89.608 E136.08579
G1 X136.221 Y90.238 E136.14803
G1 X136.335 Y90.886 E136.2102
G1 X136.37 Y91.5 E136.26832
G1 X136.37 Y131.5 E140.04832
G1 X136.33 Y132.157 E140.11052
G1 X136.211 Y132.805 E140.17278
G1 X136.014 Y133.433 E140.23498
G1 X135.742 Y134.033 E140.29723
G1 X135.4 Y134.596 E140.35948
G1 X134.992 Y135.113 E140.42172
G1 X134.525 Y135.576 E140.48386
