;FLAVOR:UltiGCode
;TIME:1509
;MATERIAL:2533
;MATERIAL2:0
;NOZZLE_DIAMETER:0.4
;Generated with Cura_SteamEngine 3.2.1
M82 ;absolute extrusion mode

;LAYER_COUNT:71
;LAYER:0
M107
G0 F4500 X96.96 Y95.711 Z0.27
;TYPE:SKIRT
G1 F1800 X97.54 Y95.169 E0.07502
G1 X98.2 Y94.67 E0.15321
G1 X99.632 Y93.7 E0.31665
G1 X100.197 Y93.351 E0.37941
G1 X101.317 Y92.723 E0.50075
G1 X102.199 Y92.298 E0.59327
G1 X121.946 Y84.26 E2.60804
G1 X122.695 Y83.998 E2.68303
G1 X123.467 Y83.813 E2.75804
G1 X124.253 Y83.707 E2.83299
G1 X125.046 Y83.68 E2.90798
G1 X125.838 Y83.733 E2.98299
G1 X126.62 Y83.866 E3.05795
G1 X127.385 Y84.076 E3.13291
G1 X128.125 Y84.363 E3.20792
G1 X128.832 Y84.722 E3.28285
G1 X129.5 Y85.151 E3.35787
G1 X130.121 Y85.645 E3.43286
G1 X130.689 Y86.199 E3.50784
G1 X131.199 Y86.807 E3.58283
G1 X131.644 Y87.464 E3.65782
G1 X132.022 Y88.162 E3.73283
G1 X132.327 Y88.894 E3.80777
G1 X132.557 Y89.653 E3.88272
G1 X132.71 Y90.432 E3.95774
G1 X132.79 Y91.554 E4.06404
G1 X132.79 Y131.442 E7.83346
G1 X132.75 Y132.234 E7.90839
G1 X132.631 Y133.019 E7.98342
G1 X132.433 Y133.787 E8.05837
G1 X132.158 Y134.532 E8.13342
G1 X131.811 Y135.245 E8.20835
G1 X131.393 Y135.92 E8.28338
G1 X130.91 Y136.549 E8.35832
G1 X130.365 Y137.126 E8.43333
G1 X129.766 Y137.646 E8.50829
G1 X129.117 Y138.102 E8.58324
G1 X128.425 Y138.491 E8.65826
G1 X127.698 Y138.809 E8.73325
G1 X126.942 Y139.052 E8.80829
G1 X126.166 Y139.217 E8.88326
G1 X125.378 Y139.303 E8.95817
G1 X124.584 Y139.31 E9.03321
G1 X123.794 Y139.237 E9.10818
G1 X123.015 Y139.084 E9.1832
G1 X121.956 Y138.74 E9.28842
G1 X102.556 Y130.873 E11.26673
G1 X101.713 Y130.471 E11.35498
G1 X99.968 Y129.509 E11.54329
G1 X99.169 Y129.004 E11.63261
G1 X97.83 Y128.04 E11.78852
G1 X97.21 Y127.545 E11.8635
G1 X96.643 Y126.989 E11.93854
G1 X96.312 Y126.607 E11.98631
G1 X94.997 Y124.984 E12.1837
G1 X94.613 Y124.467 E12.24456
G1 X93.334 Y122.594 E12.45889
G1 X92.788 Y121.664 E12.5608
G1 X92.156 Y120.395 E12.69477
G1 X91.759 Y119.446 E12.79199
G1 X91.067 Y117.435 E12.99296
G1 X90.794 Y116.435 E13.09092
G1 X90.516 Y115.061 E13.22339
G1 X90.385 Y114.125 E13.31271
G1 X90.237 Y112.269 E13.48866
G1 X90.214 Y111.449 E13.56618
G1 X90.238 Y110.476 E13.65815
G1 X90.315 Y109.56 E13.74502
G1 X90.617 Y107.439 E13.94748
G1 X90.83 Y106.423 E14.04558
G1 X91.213 Y105.057 E14.17964
G1 X91.555 Y104.087 E14.27684
G1 X92.384 Y102.148 E14.47612
G1 X92.807 Y101.303 E14.56542
G1 X93.385 Y100.303 E14.67457
G1 X94.024 Y99.362 E14.78206
G1 X96.437 Y96.308 E15.14987
G1 X96.96 Y95.711 E15.22487
G0 F4500 X97.223 Y95.942
G1 F1800 X97.792 Y95.415 E15.29816
G1 X98.396 Y94.96 E15.36963
G1 X99.828 Y93.99 E15.53307
G1 X100.368 Y93.656 E15.59308
G1 X101.488 Y93.028 E15.71442
G1 X102.331 Y92.622 E15.80284
G1 X122.078 Y84.584 E17.8176
G1 X122.81 Y84.329 E17.89086
G1 X123.565 Y84.151 E17.96416
G1 X124.335 Y84.051 E18.03753
G1 X125.11 Y84.032 E18.11079
G1 X125.883 Y84.092 E18.18406
G1 X126.646 Y84.231 E18.25735
G1 X127.391 Y84.448 E18.33068
G1 X128.109 Y84.741 E18.40396
G1 X128.794 Y85.106 E18.47731
G1 X129.437 Y85.539 E18.55057
G1 X130.032 Y86.036 E18.62383
G1 X130.573 Y86.593 E18.69721
G1 X131.053 Y87.201 E18.77041
G1 X131.469 Y87.856 E18.84374
G1 X131.815 Y88.55 E18.91702
G1 X132.087 Y89.277 E18.99037
G1 X132.283 Y90.027 E19.06363
G1 X132.401 Y90.794 E19.13696
G1 X132.44 Y91.554 E19.20888
G1 X132.44 Y131.442 E22.97829
G1 X132.4 Y132.217 E23.05163
G1 X132.281 Y132.983 E23.12488
G1 X132.083 Y133.733 E23.19819
G1 X131.809 Y134.459 E23.27152
G1 X131.462 Y135.152 E23.34476
G1 X131.045 Y135.806 E23.41805
G1 X130.563 Y136.414 E23.49137
G1 X130.021 Y136.969 E23.56468
G1 X129.425 Y137.466 E23.63802
G1 X128.781 Y137.898 E23.7113
G1 X128.096 Y138.261 E23.78456
G1 X127.377 Y138.553 E23.8579
G1 X126.632 Y138.768 E23.93117
G1 X125.869 Y138.906 E24.00444
G1 X125.096 Y138.965 E24.07771
G1 X124.32 Y138.943 E24.15107
G1 X123.551 Y138.842 E24.22436
G1 X122.797 Y138.663 E24.29759
G1 X122.087 Y138.415 E24.36867
G1 X102.687 Y130.548 E26.34697
G1 X101.882 Y130.165 E26.43121
G1 X100.137 Y129.203 E26.61951
G1 X99.373 Y128.72 E26.70493
G1 X98.034 Y127.756 E26.86084
G1 X97.429 Y127.271 E26.93412
G1 X96.877 Y126.726 E27.00743
G1 X96.584 Y126.386 E27.04984
G1 X95.269 Y124.763 E27.24724
G1 X94.902 Y124.27 E27.30532
G1 X93.623 Y122.397 E27.51965
G1 X93.101 Y121.508 E27.61707
G1 X92.469 Y120.239 E27.75104
G1 X92.089 Y119.332 E27.84397
G1 X91.397 Y117.321 E28.04494
G1 X91.137 Y116.365 E28.13857
G1 X90.859 Y114.991 E28.27104
G1 X90.734 Y114.097 E28.35635
G1 X90.586 Y112.241 E28.5323
G1 X90.564 Y111.457 E28.60641
G1 X90.588 Y110.484 E28.69839
G1 X90.661 Y109.609 E28.78136
G1 X90.963 Y107.488 E28.98382
G1 X91.167 Y106.517 E29.07758
G1 X91.55 Y105.151 E29.21165
G1 X91.877 Y104.225 E29.30445
G1 X92.706 Y102.286 E29.50373
G1 X93.11 Y101.478 E29.5891
G1 X93.688 Y100.478 E29.69825
G1 X94.299 Y99.579 E29.80097
G1 X96.712 Y96.525 E30.16878
G1 X97.223 Y95.942 E30.24205
G0 F4500 X97.486 Y96.173
G1 F1800 X98.044 Y95.66 E30.31367
G1 X98.592 Y95.25 E30.37835
G1 X100.024 Y94.28 E30.5418
G1 X100.539 Y93.962 E30.599
G1 X101.659 Y93.334 E30.72034
G1 X102.463 Y92.946 E30.8047
G1 X122.21 Y84.908 E32.81947
G1 X122.926 Y84.66 E32.89107
G1 X123.663 Y84.489 E32.96257
G1 X124.415 Y84.396 E33.03417
G1 X125.172 Y84.384 E33.10572
G1 X125.927 Y84.451 E33.17735
G1 X126.67 Y84.597 E33.2489
G1 X127.393 Y84.821 E33.32043
G1 X128.089 Y85.119 E33.39198
G1 X128.75 Y85.49 E33.46361
G1 X129.368 Y85.928 E33.53519
G1 X129.936 Y86.428 E33.6067
G1 X130.448 Y86.986 E33.67827
G1 X130.899 Y87.595 E33.74988
G1 X131.283 Y88.248 E33.82147
G1 X131.596 Y88.937 E33.89298
G1 X131.834 Y89.656 E33.96455
G1 X131.996 Y90.396 E34.03614
G1 X132.079 Y91.149 E34.10773
G1 X132.09 Y91.554 E34.14601
G1 X132.09 Y131.442 E37.91543
G1 X132.05 Y132.198 E37.98697
G1 X131.931 Y132.946 E38.05855
G1 X131.733 Y133.677 E38.13012
G1 X131.459 Y134.384 E38.20177
G1 X131.113 Y135.057 E38.27328
G1 X130.697 Y135.69 E38.34486
G1 X130.217 Y136.276 E38.41644
G1 X129.678 Y136.808 E38.48801
G1 X129.086 Y137.28 E38.55956
G1 X128.447 Y137.687 E38.63115
G1 X127.769 Y138.025 E38.70274
G1 X127.06 Y138.289 E38.77424
G1 X126.326 Y138.477 E38.84584
G1 X125.577 Y138.586 E38.91737
G1 X124.82 Y138.616 E38.98896
G1 X124.064 Y138.566 E39.06056
G1 X123.318 Y138.437 E39.1321
G1 X122.589 Y138.23 E39.20372
G1 X122.219 Y138.091 E39.24107
G1 X102.819 Y130.224 E41.21937
G1 X102.051 Y129.858 E41.29976
G1 X100.306 Y128.896 E41.48807
G1 X99.578 Y128.436 E41.56944
G1 X98.239 Y127.472 E41.72536
G1 X97.648 Y126.998 E41.79695
G1 X97.111 Y126.464 E41.86852
G1 X96.856 Y126.166 E41.90558
G1 X95.541 Y124.543 E42.10298
G1 X95.191 Y124.072 E42.15844
G1 X93.912 Y122.199 E42.37276
G1 X93.414 Y121.352 E42.46562
G1 X92.782 Y120.083 E42.59959
G1 X92.42 Y119.219 E42.68811
G1 X91.728 Y117.208 E42.88909
G1 X91.481 Y116.296 E42.97838
G1 X91.203 Y114.922 E43.11085
G1 X91.083 Y114.069 E43.19225
G1 X90.935 Y112.213 E43.3682
G1 X90.914 Y111.466 E43.43882
G1 X90.938 Y110.493 E43.5308
G1 X91.008 Y109.659 E43.60989
G1 X91.31 Y107.538 E43.81234
G1 X91.504 Y106.612 E43.90175
G1 X91.887 Y105.246 E44.03581
G1 X92.199 Y104.362 E44.1244
G1 X93.028 Y102.423 E44.32368
G1 X93.413 Y101.653 E44.40504
G1 X93.991 Y100.653 E44.51419
G1 X94.573 Y99.796 E44.61208
G1 X96.986 Y96.742 E44.9799
G1 X97.486 Y96.173 E45.05148
G0 F4500 X97.749 Y96.405
G1 F1800 X98.295 Y95.907 E45.12131
G1 X98.788 Y95.539 E45.17945
G1 X100.22 Y94.569 E45.3429
G1 X100.71 Y94.267 E45.39729
G1 X101.83 Y93.639 E45.51863
G1 X102.595 Y93.271 E45.59886
G1 X122.342 Y85.233 E47.61362
G1 X123.04 Y84.992 E47.6834
G1 X123.76 Y84.827 E47.75321
G1 X124.494 Y84.742 E47.82303
G1 X125.233 Y84.736 E47.89287
G1 X125.967 Y84.811 E47.9626
G1 X126.69 Y84.964 E48.03243
G1 X127.392 Y85.194 E48.10224
G1 X128.065 Y85.499 E48.17207
G1 X128.701 Y85.875 E48.24189
G1 X129.292 Y86.317 E48.31163
G1 X129.832 Y86.821 E48.38143
G1 X130.315 Y87.38 E48.45124
G1 X130.734 Y87.988 E48.52102
G1 X131.086 Y88.638 E48.59087
G1 X131.365 Y89.322 E48.66068
G1 X131.568 Y90.032 E48.73047
G1 X131.694 Y90.76 E48.80029
G1 X131.74 Y91.554 E48.87544
G1 X131.74 Y131.442 E52.64486
G1 X131.7 Y132.18 E52.7147
G1 X131.581 Y132.908 E52.78441
G1 X131.383 Y133.62 E52.85425
G1 X131.11 Y134.306 E52.92402
G1 X130.764 Y134.959 E52.99386
G1 X130.35 Y135.571 E53.06368
G1 X129.872 Y136.134 E53.13347
G1 X129.336 Y136.642 E53.20326
G1 X128.748 Y137.089 E53.27306
G1 X128.115 Y137.47 E53.34288
G1 X127.445 Y137.781 E53.41268
G1 X126.745 Y138.017 E53.48249
G1 X126.024 Y138.176 E53.55226
G1 X125.289 Y138.257 E53.62214
G1 X124.551 Y138.257 E53.69188
G1 X123.816 Y138.178 E53.76174
G1 X123.095 Y138.02 E53.83149
G1 X122.35 Y137.767 E53.90584
G1 X102.95 Y129.9 E55.88414
G1 X102.22 Y129.552 E55.96057
G1 X100.475 Y128.59 E56.14887
G1 X99.782 Y128.152 E56.22634
G1 X98.443 Y127.188 E56.38226
G1 X97.868 Y126.725 E56.45202
G1 X97.128 Y125.946 E56.55355
G1 X95.813 Y124.323 E56.75095
G1 X95.48 Y123.875 E56.8037
G1 X94.201 Y122.002 E57.01803
G1 X93.728 Y121.196 E57.10635
G1 X93.096 Y119.927 E57.24032
G1 X92.751 Y119.105 E57.32456
G1 X92.059 Y117.094 E57.52554
G1 X91.824 Y116.226 E57.61051
G1 X91.546 Y114.852 E57.74299
G1 X91.432 Y114.042 E57.82029
G1 X91.284 Y112.186 E57.99624
G1 X91.264 Y111.475 E58.06345
G1 X91.288 Y110.502 E58.15543
G1 X91.354 Y109.708 E58.23072
G1 X91.656 Y107.587 E58.43318
G1 X91.841 Y106.706 E58.51825
G1 X92.224 Y105.34 E58.65231
G1 X92.52 Y104.5 E58.73648
G1 X93.349 Y102.561 E58.93576
G1 X93.716 Y101.829 E59.01314
G1 X94.294 Y100.829 E59.12229
G1 X94.848 Y100.013 E59.21549
G1 X97.261 Y96.959 E59.58331
G1 X97.749 Y96.405 E59.65308
G0 F4500 X98.012 Y96.637
G1 F1800 X98.546 Y96.154 E59.72112
G1 X98.985 Y95.829 E59.77274
G1 X100.417 Y94.859 E59.93618
G1 X100.881 Y94.572 E59.98774
G1 X102.001 Y93.944 E60.10908
G1 X102.727 Y93.595 E60.18521
G1 X122.474 Y85.557 E62.19997
G1 X123.154 Y85.323 E62.26793
G1 X123.856 Y85.166 E62.33591
G1 X124.572 Y85.088 E62.40397
G1 X125.291 Y85.09 E62.47191
G1 X126.006 Y85.172 E62.53993
G1 X126.707 Y85.332 E62.60787
G1 X127.386 Y85.569 E62.67584
G1 X128.035 Y85.88 E62.74384
G1 X128.645 Y86.261 E62.81181
G1 X129.209 Y86.708 E62.87982
G1 X129.72 Y87.214 E62.94777
G1 X130.172 Y87.774 E63.01578
G1 X130.559 Y88.381 E63.08381
G1 X130.876 Y89.027 E63.15181
G1 X131.12 Y89.703 E63.21973
G1 X131.287 Y90.403 E63.28773
G1 X131.375 Y91.117 E63.35572
G1 X131.39 Y91.554 E63.39704
G1 X131.39 Y131.442 E67.16645
G1 X131.35 Y132.16 E67.23441
G1 X131.231 Y132.87 E67.30244
G1 X131.033 Y133.562 E67.37046
G1 X130.76 Y134.227 E67.43839
G1 X130.415 Y134.859 E67.50643
G1 X130.002 Y135.448 E67.57441
G1 X129.526 Y135.987 E67.64237
G1 X128.994 Y136.471 E67.71034
G1 X128.411 Y136.892 E67.77829
G1 X127.784 Y137.246 E67.84634
G1 X127.123 Y137.529 E67.91428
G1 X126.434 Y137.736 E67.98227
G1 X125.726 Y137.866 E68.05029
G1 X125.008 Y137.916 E68.11831
G1 X124.29 Y137.887 E68.18622
G1 X123.579 Y137.778 E68.25419
G1 X122.884 Y137.59 E68.32223
G1 X122.482 Y137.442 E68.36271
G1 X103.082 Y129.575 E70.34101
G1 X102.389 Y129.245 E70.41355
G1 X100.644 Y128.283 E70.60185
G1 X99.987 Y127.868 E70.67528
G1 X98.648 Y126.904 E70.8312
G1 X98.088 Y126.452 E70.89921
G1 X97.4 Y125.725 E70.9938
G1 X96.085 Y124.102 E71.19119
G1 X95.769 Y123.677 E71.24124
G1 X94.49 Y121.804 E71.45557
G1 X94.041 Y121.04 E71.53931
G1 X93.409 Y119.771 E71.67328
G1 X93.082 Y118.991 E71.75321
G1 X92.39 Y116.98 E71.95418
G1 X92.167 Y116.157 E72.03476
G1 X91.889 Y114.783 E72.16724
G1 X91.78 Y114.014 E72.24063
G1 X91.632 Y112.158 E72.41658
G1 X91.614 Y111.483 E72.48039
G1 X91.638 Y110.51 E72.57237
G1 X91.701 Y109.757 E72.64378
G1 X92.003 Y107.636 E72.84623
G1 X92.178 Y106.801 E72.92685
G1 X92.561 Y105.435 E73.06092
G1 X92.842 Y104.638 E73.14078
G1 X93.671 Y102.699 E73.34006
G1 X94.019 Y102.004 E73.41351
G1 X94.597 Y101.004 E73.52266
G1 X95.122 Y100.23 E73.61104
G1 X97.535 Y97.176 E73.97886
G1 X98.012 Y96.637 E74.04687
G0 F4500 X98.275 Y96.869
G1 F1800 X98.796 Y96.402 E74.11299
G1 X99.181 Y96.119 E74.15815
G1 X100.613 Y95.149 E74.32159
G1 X101.052 Y94.878 E74.37035
G1 X102.172 Y94.25 E74.49169
G1 X102.859 Y93.919 E74.56375
G1 X122.606 Y85.881 E76.57852
G1 X123.268 Y85.655 E76.64462
G1 X123.951 Y85.505 E76.7107
G1 X124.648 Y85.435 E76.7769
G1 X125.347 Y85.444 E76.84296
G1 X126.041 Y85.533 E76.90908
G1 X126.721 Y85.701 E76.97528
G1 X127.376 Y85.945 E77.04133
G1 X128 Y86.263 E77.10751
G1 X128.583 Y86.649 E77.17359
G1 X129.119 Y87.099 E77.23972
G1 X129.599 Y87.608 E77.30584
G1 X130.019 Y88.168 E77.37199
G1 X130.372 Y88.772 E77.4381
G1 X130.654 Y89.413 E77.50428
G1 X130.86 Y90.081 E77.57034
G1 X130.989 Y90.769 E77.63648
G1 X131.04 Y91.554 E77.71082
G1 X131.04 Y131.442 E81.48024
G1 X131 Y132.141 E81.5464
G1 X130.881 Y132.83 E81.61248
G1 X130.683 Y133.501 E81.67859
G1 X130.411 Y134.146 E81.74474
G1 X130.067 Y134.755 E81.81084
G1 X129.655 Y135.321 E81.87699
G1 X129.182 Y135.836 E81.94307
G1 X128.653 Y136.294 E82.0092
G1 X128.075 Y136.689 E82.07535
G1 X127.456 Y137.015 E82.14147
G1 X126.804 Y137.269 E82.20759
G1 X126.127 Y137.446 E82.27372
G1 X125.434 Y137.545 E82.33987
G1 X124.735 Y137.564 E82.40595
G1 X124.038 Y137.504 E82.47206
G1 X123.352 Y137.364 E82.53822
G1 X122.613 Y137.118 E82.61183
G1 X103.213 Y129.251 E84.59013
G1 X102.558 Y128.939 E84.65869
G1 X100.813 Y127.977 E84.84699
G1 X100.191 Y127.584 E84.91652
G1 X98.852 Y126.62 E85.07244
G1 X98.309 Y126.179 E85.13854
G1 X97.672 Y125.505 E85.22618
G1 X96.357 Y123.882 E85.42358
G1 X96.058 Y123.48 E85.47092
G1 X94.779 Y121.607 E85.68525
G1 X94.354 Y120.884 E85.76451
G1 X93.722 Y119.615 E85.89848
G1 X93.413 Y118.877 E85.97408
G1 X92.721 Y116.866 E86.17506
G1 X92.51 Y116.088 E86.25124
G1 X92.232 Y114.714 E86.38371
G1 X92.129 Y113.986 E86.45319
G1 X91.981 Y112.13 E86.62914
G1 X91.964 Y111.492 E86.68945
G1 X91.988 Y110.519 E86.78143
G1 X92.047 Y109.807 E86.84894
G1 X92.349 Y107.686 E87.0514
G1 X92.515 Y106.895 E87.12778
G1 X92.898 Y105.529 E87.26184
G1 X93.164 Y104.775 E87.3374
G1 X93.993 Y102.836 E87.53668
G1 X94.322 Y102.179 E87.60611
G1 X94.9 Y101.179 E87.71526
G1 X95.397 Y100.447 E87.79888
G1 X97.81 Y97.393 E88.16669
G1 X98.275 Y96.869 E88.2329
G0 F4500 X98.537 Y97.102
G1 F1800 X99.045 Y96.652 E88.29703
G1 X99.377 Y96.409 E88.33591
G1 X100.809 Y95.439 E88.49936
G1 X101.224 Y95.183 E88.54543
G1 X102.344 Y94.555 E88.66678
G1 X102.991 Y94.243 E88.73466
G1 X122.738 Y86.205 E90.74942
G1 X123.381 Y85.986 E90.81361
G1 X124.045 Y85.845 E90.87776
G1 X124.722 Y85.782 E90.94201
G1 X125.401 Y85.8 E91.0062
G1 X126.074 Y85.896 E91.07044
G1 X126.73 Y86.072 E91.13463
G1 X127.361 Y86.323 E91.1988
G1 X127.959 Y86.646 E91.26303
G1 X128.514 Y87.038 E91.32724
G1 X129.02 Y87.492 E91.39148
G1 X129.468 Y88.002 E91.45563
G1 X129.854 Y88.561 E91.51983
G1 X130.171 Y89.162 E91.58404
G1 X130.416 Y89.796 E91.64827
G1 X130.584 Y90.454 E91.71244
G1 X130.674 Y91.127 E91.77661
G1 X130.69 Y91.554 E91.81699
G1 X130.69 Y131.442 E95.5864
G1 X130.65 Y132.12 E95.65059
G1 X130.531 Y132.789 E95.7148
G1 X130.334 Y133.439 E95.77898
G1 X130.062 Y134.062 E95.84322
G1 X129.718 Y134.648 E95.90744
G1 X129.308 Y135.19 E95.97166
G1 X128.838 Y135.68 E96.03582
G1 X128.313 Y136.111 E96.10001
G1 X127.741 Y136.478 E96.16424
G1 X127.13 Y136.775 E96.22844
G1 X126.488 Y136.999 E96.29269
G1 X125.825 Y137.145 E96.35685
G1 X125.149 Y137.212 E96.42104
G1 X124.47 Y137.2 E96.48522
G1 X123.796 Y137.108 E96.5495
G1 X123.139 Y136.937 E96.61366
G1 X122.745 Y136.794 E96.65326
G1 X103.345 Y128.927 E98.63157
G1 X102.727 Y128.632 E98.69628
G1 X100.982 Y127.67 E98.88458
G1 X100.396 Y127.3 E98.95007
G1 X99.057 Y126.336 E99.10599
G1 X98.53 Y125.907 E99.17021
G1 X97.944 Y125.285 E99.25096
G1 X96.629 Y123.662 E99.44836
G1 X96.347 Y123.283 E99.493
G1 X95.068 Y121.41 E99.70733
G1 X94.668 Y120.728 E99.78205
G1 X94.036 Y119.459 E99.91602
G1 X93.744 Y118.763 E99.98734
G1 X93.052 Y116.752 E100.18832
G1 X92.853 Y116.018 E100.26019
G1 X92.575 Y114.644 E100.39266
G1 X92.478 Y113.958 E100.45813
G1 X92.33 Y112.102 E100.63408
G1 X92.314 Y111.501 E100.6909
G1 X92.338 Y110.528 E100.78287
G1 X92.394 Y109.856 E100.8466
G1 X92.696 Y107.735 E101.04905
G1 X92.852 Y106.99 E101.12098
G1 X93.235 Y105.624 E101.25505
